; G-Code flavour: Marlin
; ID: 676daef90062a243e0790127
; Print time: 0:23:03
; Filament used: 0.9 meter(s)
; Estimated weight: 3 gram(s)
; Generated with: REALvisionCore 27.1.9
; Printer name: Creality Ender 3 Pro
; Material Profile: CreaTECH_PLA 
; Layer height: 0.2
M140 S60
M104 S210 T0
G90
M82
G28
; Repositioning
; Preset : Recommended
G1 Z25 F1000.02
G1 X0 F4800
G1 Y0
M190 S60
M109 S210 T0
G28 ; home all axes
G1 X5 Y10 Z0.2 F3000 ; get ready to prime
G92 E0 ; reset extrusion distance
G1 X160 E15 F600 ; prime nozzle
G1 X180 F5000 ; quick wipe
T0
; Print start
   ; Repositioning
; Preset : Recommended
G1 X108.16 Y91.035 F4800
G1 Z0.03 F1000.02
              ; New Layer
; layer 0, Z = 0.239
; layer time : 00:01:53
M140 S60
; Repositioning
G1 Z0.239
; Contour
; Path width : 0.4
; Path height : 0.24
G1 X110 Y90.743 E0.1004 F1200
G1 X111.84 Y91.035 E0.2008
G1 X117.636 Y93.989 E0.5513
G1 Y77.224 E1.4546
G1 X115.607 Y76.02 E1.5817
G1 X115.454 Y75.841 E1.5944
G1 X115.296 Y75.48 E1.6156
G1 X115.232 Y75 E1.6417
G1 X115.296 Y74.52 E1.6678
G1 X115.454 Y74.159 E1.6891
G1 X115.607 Y73.98 E1.7017
G1 X117.636 Y72.776 E1.8288
G1 Y66.024 E2.1926
G1 X115.607 Y64.82 E2.3197
G1 X115.454 Y64.641 E2.3324
G1 X115.296 Y64.28 E2.3537
G1 X115.232 Y63.8 E2.3798
G1 X115.296 Y63.32 E2.4059
G1 X115.454 Y62.959 E2.4271
G1 X115.607 Y62.78 E2.4398
G1 X117.636 Y61.576 E2.5669
G1 Y46.7 E3.3684
G1 X102.364 E4.1913
G1 Y93.989 E6.7393
G1 X108.16 Y91.035 E7.0898
G92 E0
; Repositioning
G1 X108.386 Y90.705 F1800
G1 X108.035 Y90.65
; Contour
G1 X110 Y90.338 E0.1072 F1200
G1 X111.965 Y90.65 E0.2144
G1 X117.236 Y93.336 E0.5332
G1 Y77.452 E1.3891
G1 X115.346 Y76.33 E1.5075
G1 X115.112 Y76.056 E1.5269
G1 X114.907 Y75.589 E1.5544
G1 X114.828 Y75 E1.5864
G1 X114.907 Y74.411 E1.6184
G1 X115.112 Y73.944 E1.6459
G1 X115.346 Y73.67 E1.6653
G1 X117.236 Y72.548 E1.7837
G1 Y66.252 E2.123
G1 X115.346 Y65.13 E2.2414
G1 X115.112 Y64.856 E2.2608
G1 X114.907 Y64.389 E2.2883
G1 X114.828 Y63.8 E2.3203
G1 X114.907 Y63.211 E2.3523
G1 X115.112 Y62.744 E2.3798
G1 X115.346 Y62.47 E2.3992
G1 X117.236 Y61.348 E2.5176
G1 Y47.1 E3.2853
G1 X102.764 E4.0651
G1 Y93.336 E6.5564
G1 X108.035 Y90.65 E6.8751
G92 E0
; Repositioning
G1 X107.909 Y90.265 F1800
; Contour
G1 X110 Y89.933 E0.114 F1200
G1 X112.091 Y90.265 E0.2281
G1 X116.836 Y92.684 E0.5151
G1 Y77.68 E1.3235
G1 X115.086 Y76.64 E1.4332
G1 X114.769 Y76.271 E1.4594
G1 X114.519 Y75.698 E1.4931
G1 X114.424 Y75 E1.531
G1 X114.519 Y74.302 E1.569
G1 X114.769 Y73.729 E1.6027
G1 X115.086 Y73.36 E1.6289
G1 X116.836 Y72.32 E1.7386
G1 Y66.48 E2.0533
G1 X115.086 Y65.44 E2.163
G1 X114.769 Y65.071 E2.1892
G1 X114.519 Y64.498 E2.2229
G1 X114.424 Y63.8 E2.2608
G1 X114.519 Y63.102 E2.2988
G1 X114.769 Y62.529 E2.3324
G1 X115.086 Y62.16 E2.3587
G1 X116.836 Y61.12 E2.4683
G1 Y47.5 E3.2022
G1 X103.164 E3.9389
G1 Y92.684 E6.3734
G1 X107.909 Y90.265 E6.6604
G92 E0
; Repositioning
G1 X107.784 Y89.879 F1800
; Contour
G1 X110 Y89.528 E0.1209 F1200
G1 X112.216 Y89.879 E0.2418
G1 X116.436 Y92.031 E0.497
G1 Y77.907 E1.258
G1 X114.825 Y76.951 E1.3589
G1 X114.426 Y76.486 E1.3919
G1 X114.13 Y75.807 E1.4318
G1 X114.021 Y75 E1.4757
G1 X114.13 Y74.193 E1.5196
G1 X114.426 Y73.514 E1.5595
G1 X114.825 Y73.049 E1.5925
G1 X116.436 Y72.093 E1.6934
G1 Y66.707 E1.9836
G1 X114.825 Y65.751 E2.0846
G1 X114.426 Y65.286 E2.1176
G1 X114.13 Y64.607 E2.1575
G1 X114.021 Y63.8 E2.2013
G1 X114.13 Y62.993 E2.2452
G1 X114.426 Y62.314 E2.2851
G1 X114.825 Y61.849 E2.3181
G1 X116.436 Y60.893 E2.4191
G1 Y47.9 E3.1191
G1 X103.564 E3.8127
G1 Y92.031 E6.1905
G1 X107.784 Y89.879 E6.4457
G92 E0
; Repositioning
G1 X107.659 Y89.494 F1800
; Contour
G1 X110 Y89.123 E0.1277 F1200
G1 X112.341 Y89.494 E0.2554
G1 X116.036 Y91.378 E0.4789
G1 Y78.135 E1.1924
G1 X114.564 Y77.261 E1.2847
G1 X114.084 Y76.701 E1.3244
G1 X113.741 Y75.916 E1.3706
G1 X113.617 Y75 E1.4204
G1 X113.741 Y74.084 E1.4701
G1 X114.084 Y73.299 E1.5163
G1 X114.564 Y72.739 E1.5561
G1 X116.036 Y71.865 E1.6483
G1 Y66.935 E1.9139
G1 X114.564 Y66.061 E2.0062
G1 X114.084 Y65.501 E2.0459
G1 X113.741 Y64.716 E2.0921
G1 X113.617 Y63.8 E2.1419
G1 X113.741 Y62.884 E2.1917
G1 X114.084 Y62.099 E2.2378
G1 X114.564 Y61.539 E2.2776
G1 X116.036 Y60.665 E2.3698
G1 Y48.3 E3.0361
G1 X103.964 E3.6865
G1 Y91.378 E6.0076
G1 X107.659 Y89.494 E6.231
G92 E0
; Repositioning
G1 X107.534 Y89.109 F1800
; Contour
G1 X110 Y88.718 E0.1345 F1200
G1 X112.466 Y89.109 E0.2691
G1 X115.636 Y90.725 E0.4608
G1 Y78.363 E1.1269
G1 X114.303 Y77.571 E1.2104
G1 X113.741 Y76.916 E1.2569
G1 X113.352 Y76.025 E1.3093
G1 X113.214 Y75 E1.365
G1 X113.352 Y73.975 E1.4207
G1 X113.741 Y73.084 E1.4731
G1 X114.303 Y72.429 E1.5196
G1 X115.636 Y71.637 E1.6032
G1 Y67.163 E1.8443
G1 X114.303 Y66.371 E1.9278
G1 X113.741 Y65.716 E1.9743
G1 X113.352 Y64.825 E2.0267
G1 X113.214 Y63.8 E2.0824
G1 X113.352 Y62.775 E2.1381
G1 X113.741 Y61.884 E2.1905
G1 X114.303 Y61.229 E2.237
G1 X115.636 Y60.437 E2.3205
G1 Y48.7 E2.953
G1 X104.364 E3.5603
G1 Y90.725 E5.8247
G1 X107.534 Y89.109 E6.0164
G92 E0
; Repositioning
G1 X107.409 Y88.724 F1800
; Contour
G1 X110 Y88.313 E0.1414 F1200
G1 X112.591 Y88.724 E0.2827
G1 X115.236 Y90.072 E0.4427
G1 Y78.59 E1.0613
G1 X114.042 Y77.882 E1.1361
G1 X113.399 Y77.13 E1.1894
G1 X112.963 Y76.134 E1.248
G1 X112.81 Y75 E1.3097
G1 X112.963 Y73.866 E1.3713
G1 X113.399 Y72.87 E1.4299
G1 X114.042 Y72.118 E1.4832
G1 X115.236 Y71.41 E1.558
G1 Y67.39 E1.7746
G1 X114.042 Y66.682 E1.8494
G1 X113.399 Y65.93 E1.9027
G1 X112.963 Y64.934 E1.9613
G1 X112.81 Y63.8 E2.0229
G1 X112.963 Y62.666 E2.0846
G1 X113.399 Y61.67 E2.1432
G1 X114.042 Y60.918 E2.1965
G1 X115.236 Y60.21 E2.2713
G1 Y49.1 E2.8699
G1 X104.764 E3.4341
G1 Y90.072 E5.6417
G1 X107.409 Y88.724 E5.8017
G92 E0
; Repositioning
G1 X107.283 Y88.339 F1800
; Contour
G1 X110 Y87.908 E0.1482 F1200
G1 X112.717 Y88.339 E0.2964
G1 X114.836 Y89.419 E0.4246
G1 Y78.818 E0.9958
G1 X113.781 Y78.192 E1.0619
G1 X113.056 Y77.345 E1.1219
G1 X112.574 Y76.242 E1.1868
G1 X112.406 Y75 E1.2543
G1 X112.574 Y73.758 E1.3219
G1 X113.056 Y72.655 E1.3867
G1 X113.781 Y71.808 E1.4468
G1 X114.836 Y71.182 E1.5129
G1 Y67.618 E1.7049
G1 X113.781 Y66.992 E1.771
G1 X113.056 Y66.145 E1.8311
G1 X112.574 Y65.042 E1.8959
G1 X112.406 Y63.8 E1.9635
G1 X112.574 Y62.558 E2.031
G1 X113.056 Y61.455 E2.0959
G1 X113.781 Y60.608 E2.1559
G1 X114.836 Y59.982 E2.222
G1 Y49.5 E2.7868
G1 X105.164 E3.3079
G1 Y89.419 E5.4588
G1 X107.283 Y88.339 E5.587
G92 E0
; Repositioning
G1 X107.158 Y87.954 F1800
; Contour
G1 X110 Y87.503 E0.155 F1200
G1 X112.842 Y87.954 E0.3101
G1 X114.436 Y88.766 E0.4065
G1 Y79.046 E0.9302
G1 X113.52 Y78.502 E0.9876
G1 X112.713 Y77.56 E1.0544
G1 X112.185 Y76.351 E1.1255
G1 X112.003 Y75 E1.199
G1 X112.185 Y73.649 E1.2725
G1 X112.713 Y72.44 E1.3435
G1 X113.52 Y71.498 E1.4104
G1 X114.436 Y70.954 E1.4677
G1 Y67.846 E1.6352
G1 X113.52 Y67.302 E1.6926
G1 X112.713 Y66.36 E1.7594
G1 X112.185 Y65.151 E1.8305
G1 X112.003 Y63.8 E1.904
G1 X112.185 Y62.449 E1.9775
G1 X112.713 Y61.24 E2.0485
G1 X113.52 Y60.298 E2.1154
G1 X114.436 Y59.754 E2.1727
G1 Y49.9 E2.7037
G1 X105.564 E3.1817
G1 Y88.766 E5.2759
G1 X107.158 Y87.954 E5.3723
G92 E0
; Repositioning
G1 X107.033 Y87.569 F1800
; Contour
G1 X110 Y87.098 E0.1619 F1200
G1 X112.967 Y87.569 E0.3237
G1 X114.036 Y88.113 E0.3884
G1 Y79.273 E0.8647
G1 X113.259 Y78.812 E0.9133
G1 X112.371 Y77.775 E0.9869
G1 X111.796 Y76.46 E1.0642
G1 X111.599 Y75 E1.1436
G1 X111.796 Y73.54 E1.223
G1 X112.371 Y72.225 E1.3003
G1 X113.259 Y71.188 E1.3739
G1 X114.036 Y70.727 E1.4226
G1 Y68.073 E1.5655
G1 X113.259 Y67.612 E1.6142
G1 X112.371 Y66.575 E1.6878
G1 X111.796 Y65.26 E1.7651
G1 X111.599 Y63.8 E1.8445
G1 X111.796 Y62.34 E1.9239
G1 X112.371 Y61.025 E2.0012
G1 X113.259 Y59.988 E2.0748
G1 X114.036 Y59.527 E2.1235
G1 Y50.3 E2.6206
G1 X105.964 E3.0555
G1 Y88.113 E5.093
G1 X107.033 Y87.569 E5.1576
G92 E0
; Repositioning
G1 X106.908 Y87.183 F1800
; Contour
G1 X110 Y86.693 E0.1687 F1200
G1 X113.092 Y87.183 E0.3374
G1 X113.636 Y87.461 E0.3703
G1 Y79.501 E0.7991
G1 X112.999 Y79.123 E0.8391
G1 X112.028 Y77.99 E0.9194
G1 X111.407 Y76.569 E1.003
G1 X111.195 Y75 E1.0883
G1 X111.407 Y73.431 E1.1736
G1 X112.028 Y72.01 E1.2572
G1 X112.999 Y70.877 E1.3375
G1 X113.636 Y70.499 E1.3775
G1 Y68.301 E1.4959
G1 X112.999 Y67.923 E1.5358
G1 X112.028 Y66.79 E1.6162
G1 X111.407 Y65.369 E1.6997
G1 X111.195 Y63.8 E1.785
G1 X111.407 Y62.231 E1.8704
G1 X112.028 Y60.81 E1.9539
G1 X112.999 Y59.677 E2.0343
G1 X113.636 Y59.299 E2.0742
G1 Y50.7 E2.5375
G1 X106.364 E2.9293
G1 Y87.461 E4.91
G1 X106.908 Y87.183 E4.9429
G92 E0
; Repositioning
G1 X106.734 Y86.857 F1800
; Contour
G1 X106.792 Y86.827 E0.0035 F1200
G1 X110 Y86.319 E0.1785
G1 X113.208 Y86.827 E0.3535
G1 X113.266 Y86.857 E0.357
G1 Y79.712 E0.742
G1 X112.757 Y79.41 E0.7738
G1 X111.711 Y78.189 E0.8605
G1 X111.047 Y76.67 E0.9498
G1 X110.822 Y75 E1.0406
G1 X111.047 Y73.33 E1.1314
G1 X111.711 Y71.811 E1.2207
G1 X112.757 Y70.59 E1.3073
G1 X113.266 Y70.288 E1.3392
G1 Y68.512 E1.4349
G1 X112.757 Y68.21 E1.4668
G1 X111.711 Y66.989 E1.5534
G1 X111.047 Y65.47 E1.6427
G1 X110.822 Y63.8 E1.7335
G1 X111.047 Y62.13 E1.8243
G1 X111.711 Y60.611 E1.9136
G1 X112.757 Y59.39 E2.0003
G1 X113.266 Y59.088 E2.0321
G1 Y51.07 E2.4642
G1 X106.734 E2.8161
G1 Y86.857 E4.7443
G92 E0
; Repositioning
G1 X107.011 Y86.511 F1800
; Infill
G1 X107.509 Y86.438 E0.0274 F1200
G1 X107.006 Y85.935 E0.0662
G1 Y85.363 E0.0973
G1 X108.003 Y86.36 E0.174
G1 X108.496 Y86.282 E0.2012
G1 X107.006 Y84.792 E0.3159
G1 Y84.22 E0.347
G1 X108.989 Y86.203 E0.4997
G1 X109.483 Y86.125 E0.5269
G1 X107.006 Y83.649 E0.7176
G1 Y83.077 E0.7487
G1 X109.976 Y86.047 E0.9773
G1 X110.646 Y86.146 E1.0142
G1 X107.006 Y82.506 E1.2945
G1 Y81.934 E1.3256
G1 X111.326 Y86.253 E1.6581
G1 X112.005 Y86.361 E1.6956
G1 X107.006 Y81.362 E2.0804
G1 Y80.791 E2.1115
G1 X112.684 Y86.469 E2.5487
G1 X112.994 Y86.207 E2.5707
G1 X107.006 Y80.219 E3.0317
G1 Y79.648 E3.0628
G1 X112.994 Y85.635 E3.5238
G1 Y85.064 E3.5549
G1 X107.006 Y79.076 E4.0159
G1 Y78.505 E4.047
G1 X112.994 Y84.492 E4.508
G1 Y83.921 E4.5391
G1 X107.006 Y77.933 E5.0001
G1 Y77.362 E5.0312
G1 X112.994 Y83.349 E5.4922
G1 Y82.778 E5.5233
G1 X107.006 Y76.79 E5.9843
G1 Y76.218 E6.0154
G1 X112.994 Y82.206 E6.4764
G1 Y81.634 E6.5075
G1 X107.006 Y75.647 E6.9685
G1 Y75.075 E6.9996
G1 X112.994 Y81.063 E7.4606
G1 Y80.491 E7.4917
G1 X107.006 Y74.504 E7.9527
G1 Y73.932 E7.9838
G1 X111.892 Y78.818 E8.36
G92 E0
; Repositioning
G1 X111.575 Y78.907 F1800
G1 X111.08 Y77.596
G1 X111.088 Y77.443
; Infill
G1 X107.006 Y73.361 E0.3143 F1200
G1 Y72.789 E0.3454
G1 X110.755 Y76.538 E0.634
G1 X110.666 Y75.877 E0.6703
G1 X107.006 Y72.218 E0.9521
G1 Y71.646 E0.9832
G1 X110.577 Y75.217 E1.2581
G1 X110.593 Y74.661 E1.2883
G1 X107.006 Y71.074 E1.5645
G1 Y70.503 E1.5956
G1 X110.661 Y74.158 E1.877
G1 X110.729 Y73.654 E1.9047
G1 X107.006 Y69.931 E2.1913
G1 Y69.36 E2.2224
G1 X110.819 Y73.173 E2.516
G1 X110.993 Y72.775 E2.5396
G1 X107.006 Y68.788 E2.8466
G1 Y68.217 E2.8777
G1 X111.167 Y72.377 E3.198
G1 X111.341 Y71.98 E3.2216
G1 X107.006 Y67.645 E3.5554
G1 Y67.074 E3.5865
G1 X111.533 Y71.601 E3.935
G1 X111.797 Y71.293 E3.9571
G1 X107.006 Y66.502 E4.3259
G1 Y65.93 E4.357
G1 X112.061 Y70.985 E4.7462
G1 X112.325 Y70.677 E4.7683
G1 X107.006 Y65.359 E5.1777
G1 Y64.787 E5.2088
G1 X112.591 Y70.372 E5.6388
G1 X112.95 Y70.159 E5.6615
G1 X107.006 Y64.216 E6.1192
G1 Y63.644 E6.1503
G1 X112.994 Y69.632 E6.6113
G1 Y69.06 E6.6424
G1 X107.006 Y63.073 E7.1034
G1 Y62.501 E7.1345
G1 X111.353 Y66.847 E7.4691
G1 X110.909 Y65.832 E7.5294
G1 X107.006 Y61.93 E7.8299
G1 Y61.358 E7.861
G1 X110.719 Y65.071 E8.1469
G1 X110.63 Y64.41 E8.1832
G1 X107.006 Y60.786 E8.4621
G1 Y60.215 E8.4933
G1 X110.553 Y63.761 E8.7663
G1 X110.621 Y63.258 E8.794
G1 X107.006 Y59.643 E9.0723
G1 Y59.072 E9.1034
G1 X110.689 Y62.754 E9.3869
G1 X110.757 Y62.251 E9.4146
G1 X107.006 Y58.5 E9.7033
G1 Y57.929 E9.7344
G1 X110.89 Y61.812 E10.0334
G1 X111.063 Y61.414 E10.057
G1 X107.006 Y57.357 E10.3694
G1 Y56.786 E10.4005
G1 X111.237 Y61.017 E10.7262
G1 X111.411 Y60.619 E10.7499
G1 X107.006 Y56.214 E11.089
G1 Y55.642 E11.1201
G1 X111.64 Y60.276 E11.4769
G1 X111.904 Y59.968 E11.4989
G1 X107.006 Y55.071 E11.876
G1 Y54.499 E11.9071
G1 X112.167 Y59.661 E12.3045
G1 X112.431 Y59.353 E12.3266
G1 X107.006 Y53.928 E12.7442
G1 Y53.356 E12.7753
G1 X112.736 Y59.086 E13.2165
G1 X112.994 Y58.772 E13.2386
G1 X107.006 Y52.785 E13.6996
G1 Y52.213 E13.7307
G1 X112.994 Y58.201 E14.1917
G1 Y57.629 E14.2228
G1 X107.006 Y51.642 E14.6838
G1 X107.278 Y51.342 E14.7058
G1 X112.994 Y57.058 E15.1459
G1 Y56.486 E15.177
G1 X107.85 Y51.342 E15.573
G1 X108.421 E15.6042
G1 X112.994 Y55.914 E15.9562
G1 Y55.343 E15.9873
G1 X108.993 Y51.342 E16.2954
G1 X109.564 E16.3265
G1 X112.994 Y54.771 E16.5905
G1 Y54.2 E16.6216
G1 X110.136 Y51.342 E16.8416
G1 X110.708 E16.8728
G1 X112.994 Y53.628 E17.0488
G1 Y53.057 E17.0799
G1 X111.279 Y51.342 E17.2119
G1 X111.851 E17.243
G1 X112.994 Y52.485 E17.331
G1 Y51.914 E17.3622
G1 X112.422 Y51.342 E17.4062
G1 X112.994 E17.4373
G1 E13.4373 F2400
G92 E0
; Repositioning with retraction
G1 X114.836 F1800
G1 Y78.818
G1 Y89.419
G1 X113.06 Y102.53
G1 X111.841 Y102.365
G1 E4 F2400
G92 E0
; Contour
G1 X110 Y102.656 E0.1004 F1200
G1 X108.159 Y102.365 E0.2009
G1 X105.781 Y101.152 E0.3447
G1 X101.886 Y104.805 E0.6324
G1 X104.232 Y110.241 E0.9514
G1 X110 Y114.788 E1.3471
G1 X115.768 Y110.241 E1.7428
G1 X118.114 Y104.805 E2.0619
G1 X114.219 Y101.152 E2.3495
G1 X111.841 Y102.365 E2.4934
G92 E0
; Repositioning
G1 X111.966 Y102.75 F1800
; Contour
G1 X110 Y103.061 E0.1073 F1200
G1 X108.034 Y102.75 E0.2145
G1 X105.849 Y101.636 E0.3466
G1 X102.365 Y104.904 E0.604
G1 X104.559 Y109.99 E0.9025
G1 X110 Y114.278 E1.2757
G1 X115.441 Y109.99 E1.649
G1 X117.635 Y104.904 E1.9474
G1 X114.151 Y101.636 E2.2048
G1 X111.966 Y102.75 E2.3369
G92 E0
; Repositioning
G1 X112.091 Y103.135 F1800
; Contour
G1 X110 Y103.466 E0.1141 F1200
G1 X107.909 Y103.135 E0.2282
G1 X105.918 Y102.12 E0.3486
G1 X102.844 Y105.004 E0.5757
G1 X104.887 Y109.738 E0.8535
G1 X110 Y113.769 E1.2043
G1 X115.113 Y109.738 E1.5552
G1 X117.156 Y105.004 E1.833
G1 X114.082 Y102.12 E2.0601
G1 X112.091 Y103.135 E2.1805
G92 E0
; Repositioning
G1 X112.216 Y103.52 F1800
; Contour
G1 X110 Y103.871 E0.1209 F1200
G1 X107.784 Y103.52 E0.2418
G1 X105.987 Y102.604 E0.3505
G1 X103.322 Y105.103 E0.5473
G1 X105.214 Y109.487 E0.8046
G1 X110 Y113.26 E1.1329
G1 X114.786 Y109.487 E1.4613
G1 X116.678 Y105.103 E1.7186
G1 X114.013 Y102.604 E1.9154
G1 X112.216 Y103.52 E2.0241
G92 E0
; Repositioning
G1 X112.341 Y103.905 F1800
; Contour
G1 X110 Y104.275 E0.1277 F1200
G1 X107.659 Y103.905 E0.2555
G1 X106.055 Y103.088 E0.3524
G1 X103.801 Y105.203 E0.519
G1 X105.541 Y109.235 E0.7556
G1 X110 Y112.75 E1.0615
G1 X114.459 Y109.235 E1.3675
G1 X116.199 Y105.203 E1.6041
G1 X113.945 Y103.088 E1.7707
G1 X112.341 Y103.905 E1.8676
G92 E0
; Repositioning
G1 X112.467 Y104.291 F1800
; Contour
G1 X110 Y104.68 E0.1346 F1200
G1 X107.533 Y104.291 E0.2691
G1 X106.124 Y103.572 E0.3543
G1 X104.279 Y105.302 E0.4906
G1 X105.868 Y108.984 E0.7067
G1 X110 Y112.241 E0.9902
G1 X114.132 Y108.984 E1.2736
G1 X115.721 Y105.302 E1.4897
G1 X113.876 Y103.572 E1.626
G1 X112.467 Y104.291 E1.7112
G92 E0
; Repositioning
G1 X112.592 Y104.676 F1800
; Contour
G1 X110 Y105.085 E0.1414 F1200
G1 X107.408 Y104.676 E0.2828
G1 X106.193 Y104.056 E0.3563
G1 X104.758 Y105.402 E0.4623
G1 X106.195 Y108.733 E0.6577
G1 X110 Y111.732 E0.9188
G1 X113.805 Y108.733 E1.1798
G1 X115.242 Y105.402 E1.3753
G1 X113.807 Y104.056 E1.4812
G1 X112.592 Y104.676 E1.5548
G92 E0
; Repositioning
G1 X112.717 Y105.061 F1800
; Contour
G1 X110 Y105.49 E0.1482 F1200
G1 X107.283 Y105.061 E0.2964
G1 X106.261 Y104.54 E0.3582
G1 X105.237 Y105.501 E0.4339
G1 X106.522 Y108.481 E0.6088
G1 X110 Y111.222 E0.8474
G1 X113.478 Y108.481 E1.086
G1 X114.763 Y105.501 E1.2608
G1 X113.739 Y104.54 E1.3365
G1 X112.717 Y105.061 E1.3983
G92 E0
; Repositioning
G1 X112.842 Y105.446 F1800
; Contour
G1 X110 Y105.895 E0.155 F1200
G1 X107.158 Y105.446 E0.3101
G1 X106.33 Y105.024 E0.3601
G1 X105.715 Y105.601 E0.4056
G1 X106.849 Y108.23 E0.5598
G1 X110 Y110.713 E0.776
G1 X113.151 Y108.23 E0.9921
G1 X114.285 Y105.601 E1.1464
G1 X113.67 Y105.024 E1.1918
G1 X112.842 Y105.446 E1.2419
G92 E0
; Repositioning
G1 X112.739 Y107.46 F1800
G1 X112.967 Y105.831
; Contour
G1 X110 Y106.3 E0.1619 F1200
G1 X107.033 Y105.831 E0.3237
G1 X106.399 Y105.508 E0.3621
G1 X106.194 Y105.7 E0.3772
G1 X107.177 Y107.978 E0.5109
G1 X110 Y110.204 E0.7046
G1 X112.823 Y107.978 E0.8983
G1 X113.806 Y105.7 E1.032
G1 X113.601 Y105.508 E1.0471
G1 X112.967 Y105.831 E1.0855
G92 E0
; Repositioning
G1 X112.95 Y106.416 F1800
G1 X113.092 Y106.217
; Contour
G1 X110 Y106.705 E0.1687 F1200
G1 X106.908 Y106.217 E0.3374
G1 X106.836 Y106.18 E0.3417
G1 X107.504 Y107.727 E0.4324
G1 X110 Y109.694 E0.6037
G1 X112.496 Y107.727 E0.775
G1 X113.164 Y106.18 E0.8657
G1 X113.092 Y106.217 E0.87
G92 E0
; Repositioning
G1 X112.95 Y106.416 F1800
G1 X112.546 Y106.678
; Contour
G1 X110 Y107.08 E0.1389 F1200
G1 X107.454 Y106.678 E0.2778
G1 X107.806 Y107.494 E0.3257
G1 X110 Y109.223 E0.4762
G1 X112.194 Y107.494 E0.6267
G1 X112.546 Y106.678 E0.6746
G92 E0
; Repositioning
G1 X112.101 Y107.023 F1800
; Infill
G1 X111.863 Y107.409 E0.0269 F1200
G1 X111.563 Y107.108 E0.052
G1 X111.025 Y107.193 E0.0844
G1 X111.515 Y107.683 E0.1255
G1 X111.166 Y107.958 E0.1518
G1 X110.487 Y107.278 E0.2088
G1 X109.93 Y107.344 E0.2421
G1 X110.818 Y108.232 E0.3166
G1 X110.47 Y108.507 E0.3429
G1 X109.19 Y107.227 E0.4502
G1 X108.45 Y107.11 E0.4947
G1 X110.121 Y108.781 E0.6349
G1 X108.051 Y107.334 E0.7848
G1 E-3.2152 F2400
G92 E0
         ; New Layer
; layer 1, Z = 0.439
; layer time : 00:00:54
; Repositioning
M106 P0 S0
G0 Z0.439 F1000.02
; Repositioning with retraction
G1 X107.283 Y105.061 F4800
G1 Y88.339
G1 X105.597 Y87.436
G1 E4 F2400
G92 E0
; Contour
; Path height : 0.2
G1 X106.734 Y86.857 E0.0382 F1200
G1 X106.886 Y86.812 E0.043
G1 X110 Y86.319 E0.1373
G1 X113.208 Y86.827 E0.2346
G1 X114.403 Y87.436 E0.2747
G1 Y80.262 E0.4895
G1 X114.097 Y80.206 E0.4988
G1 X112.757 Y79.41 E0.5455
G1 X111.711 Y78.189 E0.5936
G1 X111.047 Y76.67 E0.6432
G1 X110.822 Y75 E0.6936
G1 X111.047 Y73.33 E0.7441
G1 X111.711 Y71.811 E0.7937
G1 X112.757 Y70.59 E0.8418
G1 X114.097 Y69.795 E0.8885
G1 X114.403 Y69.738 E0.8978
G1 Y69.062 E0.918
G1 X114.097 Y69.006 E0.9274
G1 X112.757 Y68.21 E0.974
G1 X111.711 Y66.989 E1.0221
G1 X111.047 Y65.47 E1.0718
G1 X110.822 Y63.8 E1.1222
G1 X111.047 Y62.13 E1.1726
G1 X111.711 Y60.611 E1.2223
G1 X112.757 Y59.39 E1.2704
G1 X114.097 Y58.595 E1.317
G1 X114.403 Y58.538 E1.3264
G1 Y51.07 E1.5499
G1 X105.597 E1.8135
G1 Y87.436 E2.9021
G92 E0
; Repositioning
G1 X105.227 Y88.04 F4800
; Contour
G1 X106.871 Y87.202 E0.0553 F1200
G1 X106.968 Y87.174 E0.0583
G1 X110 Y86.693 E0.1502
G1 X113.092 Y87.183 E0.2439
G1 X114.773 Y88.04 E0.3004
G1 Y79.954 E0.5424
G1 X114.229 Y79.854 E0.559
G1 X112.999 Y79.123 E0.6018
G1 X112.028 Y77.99 E0.6465
G1 X111.407 Y76.569 E0.6929
G1 X111.195 Y75 E0.7403
G1 X111.407 Y73.431 E0.7877
G1 X112.028 Y72.01 E0.8341
G1 X112.999 Y70.877 E0.8788
G1 X114.229 Y70.146 E0.9216
G1 X114.773 Y70.046 E0.9382
G1 Y68.754 E0.9768
G1 X114.229 Y68.654 E0.9934
G1 X112.999 Y67.923 E1.0363
G1 X112.028 Y66.79 E1.0809
G1 X111.407 Y65.369 E1.1273
G1 X111.195 Y63.8 E1.1747
G1 X111.407 Y62.231 E1.2221
G1 X112.028 Y60.81 E1.2685
G1 X112.999 Y59.677 E1.3132
G1 X114.229 Y58.946 E1.356
G1 X114.773 Y58.846 E1.3726
G1 Y50.7 E1.6164
G1 X105.227 E1.9022
G1 Y88.04 E3.02
G92 E0
; Repositioning
G1 X105.704 Y87.376 F4800
G1 X107.817 Y86.564
G1 X110.688 Y85.913
G1 X113.327 Y86.214
G1 X114.161 Y87.041
; InfillOverhang
G1 Y86.47 E0.0173 F1200
G1 X113.783 Y86.849 E0.0335
G1 X113.404 Y86.656 E0.0463
G1 X114.161 Y85.899 E0.0787
G1 Y85.327 E0.096
G1 X112.948 Y86.541 E0.1479
G1 X112.454 Y86.463 E0.163
G1 X114.161 Y84.756 E0.236
G1 Y84.184 E0.2533
G1 X111.961 Y86.385 E0.3473
G1 X111.468 Y86.306 E0.3624
G1 X114.161 Y83.613 E0.4776
G1 Y83.041 E0.4949
G1 X110.975 Y86.228 E0.6312
G1 X110.481 Y86.15 E0.6463
G1 X114.161 Y82.47 E0.8037
G1 Y81.898 E0.8209
G1 X109.984 Y86.076 E0.9996
G1 X109.305 Y86.184 E1.0204
G1 X114.161 Y81.327 E1.2281
G1 Y80.756 E1.2454
G1 X108.625 Y86.292 E1.4821
G1 X107.946 Y86.399 E1.5029
G1 X113.948 Y80.398 E1.7595
G1 X113.589 Y80.185 E1.7721
G1 X107.267 Y86.507 E2.0425
G1 X106.497 Y86.706 E2.0666
G1 X113.23 Y79.972 E2.3545
G1 X112.872 Y79.759 E2.3671
G1 X105.859 Y86.773 E2.6671
G1 Y86.201 E2.6843
G1 X112.536 Y79.524 E2.9699
G1 X112.272 Y79.216 E2.9821
G1 X105.859 Y85.63 E3.2564
G1 Y85.058 E3.2737
G1 X112.009 Y78.908 E3.5367
G1 X111.745 Y78.6 E3.549
G1 X105.859 Y84.487 E3.8007
G1 Y83.915 E3.818
G1 X111.489 Y78.285 E4.0588
G1 X111.315 Y77.887 E4.0719
G1 X105.859 Y83.344 E4.3052
G1 Y82.773 E4.3225
G1 X111.141 Y77.49 E4.5484
G1 X110.968 Y77.092 E4.5615
G1 X105.859 Y82.201 E4.78
G1 Y81.63 E4.7973
G1 X110.805 Y76.683 E5.0088
G1 X110.737 Y76.18 E5.0242
G1 X105.859 Y81.058 E5.2328
G1 Y80.487 E5.2501
G1 X110.669 Y75.676 E5.4558
G1 X110.601 Y75.173 E5.4712
G1 X105.859 Y79.915 E5.674
G1 Y79.344 E5.6913
G1 X110.636 Y74.566 E5.8956
G1 X110.726 Y73.906 E5.9157
G1 X105.859 Y78.772 E6.1239
G1 Y78.201 E6.1411
G1 X110.825 Y73.235 E6.3535
G1 X111.269 Y72.22 E6.387
G1 X105.859 Y77.63 E6.6184
G1 Y77.058 E6.6356
G1 X113.804 Y69.113 E6.9754
G1 X113.445 Y68.9 E6.988
G1 X105.859 Y76.487 E7.3125
G1 Y75.915 E7.3298
G1 X113.087 Y68.687 E7.6389
G1 X112.728 Y68.474 E7.6515
G1 X105.859 Y75.344 E7.9453
G1 Y74.772 E7.9625
G1 X112.431 Y68.2 E8.2436
G1 X112.167 Y67.893 E8.2558
G1 X105.859 Y74.201 E8.5256
G1 Y73.629 E8.5429
G1 X111.903 Y67.585 E8.8014
G1 X111.64 Y67.277 E8.8136
G1 X105.859 Y73.058 E9.0608
G1 Y72.487 E9.0781
G1 X111.419 Y66.926 E9.3159
G1 X111.246 Y66.528 E9.329
G1 X105.859 Y71.915 E9.5594
G1 Y71.344 E9.5767
G1 X111.072 Y66.13 E9.7996
G1 X110.898 Y65.733 E9.8128
G1 X105.859 Y70.772 E10.0283
G1 Y70.201 E10.0455
G1 X110.778 Y65.282 E10.2559
G1 X110.71 Y64.778 E10.2713
G1 X105.859 Y69.629 E10.4787
G1 Y69.058 E10.496
G1 X110.642 Y64.275 E10.7006
G1 X110.583 Y63.762 E10.7162
G1 X105.859 Y68.487 E10.9182
G1 Y67.915 E10.9355
G1 X110.672 Y63.102 E11.1413
G1 X110.761 Y62.441 E11.1615
G1 X105.859 Y67.344 E11.3711
G1 Y66.772 E11.3884
G1 X111.003 Y61.628 E11.6084
G1 X111.446 Y60.613 E11.6419
G1 X105.859 Y66.201 E11.8808
G1 Y65.629 E11.8981
G1 X114.151 Y57.337 E12.2527
G1 Y56.765 E12.27
G1 X105.859 Y65.058 E12.6246
G1 Y64.486 E12.6419
G1 X114.151 Y56.194 E12.9966
G1 Y55.622 E13.0138
G1 X105.859 Y63.915 E13.3685
G1 Y63.344 E13.3857
G1 X114.151 Y55.051 E13.7404
G1 Y54.479 E13.7577
G1 X105.859 Y62.772 E14.1123
G1 Y62.201 E14.1296
G1 X114.151 Y53.908 E14.4842
G1 Y53.336 E14.5015
G1 X105.859 Y61.629 E14.8561
G1 Y61.058 E14.8734
G1 X114.151 Y52.765 E15.228
G1 Y52.194 E15.2453
G1 X105.859 Y60.486 E15.5999
G1 Y59.915 E15.6172
G1 X114.151 Y51.622 E15.9718
G1 X113.89 Y51.312 E15.9841
G1 X105.859 Y59.343 E16.3276
G1 Y58.772 E16.3448
G1 X113.319 Y51.312 E16.6639
G1 X112.747 E16.6811
G1 X105.859 Y58.201 E16.9757
G1 Y57.629 E16.993
G1 X112.176 Y51.312 E17.2631
G1 X111.604 E17.2804
G1 X105.859 Y57.058 E17.5261
G1 Y56.486 E17.5434
G1 X111.033 Y51.312 E17.7647
G1 X110.461 E17.782
G1 X105.859 Y55.915 E17.9788
G1 Y55.343 E17.9961
G1 X109.89 Y51.312 E18.1685
G1 X109.319 E18.1858
G1 X105.859 Y54.772 E18.3337
G1 Y54.201 E18.351
G1 X108.747 Y51.312 E18.4745
G1 X108.176 E18.4918
G1 X105.859 Y53.629 E18.5909
G1 Y53.058 E18.6082
G1 X107.604 Y51.312 E18.6828
G1 X107.033 E18.7001
G1 X105.859 Y52.486 E18.7503
G1 Y51.915 E18.7676
G1 X106.461 Y51.312 E18.7934
G1 X105.864 Y51.338 E18.8114
G1 E14.8114 F2400
G92 E0
; Repositioning with retraction
G1 X113.233 Y58.826 F4800
G1 E4 F2400
G92 E0
; InfillOverhang
G1 X114.151 Y57.908 E0.0393 F1200
G1 E-3.9607 F2400
G92 E0
; Repositioning with retraction
G1 X113.362 Y58.655 F4800
G1 X111.017 Y61.237
G1 X111.096 Y64.962
G1 X111.272 Y66.469
G1 X111.823 Y67.822
G1 X112.69 Y68.884
G1 X113.703 Y69.504
G1 X114.161 Y69.327
G1 E4 F2400
G92 E0
; InfillOverhang
G1 X113.797 Y69.692 E0.0156 F1200
G1 E-3.9844 F2400
G92 E0
; Repositioning with retraction
G1 X114.658 Y71.287 F4800
G1 X115.973 Y78.955
G1 Y89.999
G1 X115.167 Y103.812
G1 X115.225 Y105.545
G1 E4 F2400
G92 E0
; Contour
G1 X113.208 Y106.573 E0.0678 F1200
G1 X110 Y107.08 E0.165
G1 X106.792 Y106.573 E0.2622
G1 X104.775 Y105.545 E0.33
G1 X105.425 Y107.936 E0.4041
G1 X108.092 Y114.119 E0.6057
G1 X110 Y115.623 E0.6784
G1 X111.908 Y114.119 E0.7512
G1 X114.575 Y107.936 E0.9527
G1 X115.225 Y105.545 E1.0269
G92 E0
; Repositioning
G1 X115.689 Y105.024 F4800
G1 X115.801 Y104.836
; Contour
G1 X113.092 Y106.217 E0.091 F1200
G1 X110 Y106.705 E0.1847
G1 X106.908 Y106.217 E0.2784
G1 X104.199 Y104.836 E0.3694
G1 X105.075 Y108.058 E0.4694
G1 X107.79 Y114.352 E0.6746
G1 X110 Y116.094 E0.7588
G1 X112.21 Y114.352 E0.8431
G1 X114.925 Y108.058 E1.0483
G1 X115.801 Y104.836 E1.1482
G1 E-2.8518 F2400
G92 E0
; Repositioning with retraction
G1 X115.544 Y105.811 F4800
G1 X114.269 Y107.273
G1 X113.971 Y107.762
G1 X111.693 Y113.955
G1 E4 F2400
G92 E0
; InfillOverhang
G1 X112.13 Y112.943 E0.0336 F1200
G1 X109.879 Y115.194 E0.1305
G1 X109.557 Y114.94 E0.143
G1 X112.567 Y111.931 E0.2726
G1 X113.003 Y110.918 E0.3062
G1 X109.235 Y114.687 E0.4685
G1 X108.913 Y114.433 E0.481
G1 X113.44 Y109.906 E0.6759
G1 X113.876 Y108.894 E0.7095
G1 X108.591 Y114.179 E0.9371
G1 X108.287 Y113.909 E0.9495
G1 X114.313 Y107.882 E1.209
G1 X114.535 Y107.085 E1.2342
G1 X108.113 Y113.506 E1.5108
G1 X107.94 Y113.104 E1.5241
G1 X114.75 Y106.295 E1.8174
G1 X114.011 Y106.457 E1.8404
G1 X107.766 Y112.702 E2.1094
G1 X107.593 Y112.3 E2.1227
G1 X113.026 Y106.867 E2.3567
G1 X112.343 Y106.975 E2.3778
G1 X107.419 Y111.898 E2.5898
G1 X107.246 Y111.496 E2.6032
G1 X111.659 Y107.083 E2.7932
G1 X110.976 Y107.191 E2.8143
G1 X107.073 Y111.094 E2.9824
G1 X106.899 Y110.692 E2.9957
G1 X110.292 Y107.299 E3.1419
G1 X109.716 Y107.3 E3.1594
G1 X106.726 Y110.29 E3.2882
G1 X106.552 Y109.888 E3.3015
G1 X109.219 Y107.222 E3.4164
G1 X108.722 Y107.143 E3.4317
G1 X106.379 Y109.486 E3.5326
G1 X106.205 Y109.084 E3.5459
G1 X108.225 Y107.065 E3.6329
G1 X107.728 Y106.986 E3.6482
G1 X106.032 Y108.682 E3.7213
G1 X105.859 Y108.28 E3.7346
G1 X107.231 Y106.907 E3.7937
G1 X106.734 Y106.829 E3.809
G1 X105.685 Y107.878 E3.8542
G1 X105.559 Y107.429 E3.8684
G1 X106.347 Y106.64 E3.9023
G1 X105.966 Y106.446 E3.9154
G1 X105.436 Y106.976 E3.9382
G1 X105.585 Y106.252 E3.9607
G1 X105.197 Y106.064 E3.9739
G1 E-0.0261 F2400
G92 E0
; New Layer
; layer 2, Z = 0.639
; layer time : 00:01:14
; Repositioning
M106 P0 S255
G0 Z0.639 F1000.02
; Repositioning with retraction
G1 X116.977 Y104.223 F4800
G1 E4 F2400
G92 E0
; Contour
G1 X116.102 Y105.098 E0.037 F1200
G1 X113.208 Y106.573 E0.1343
G1 X110 Y107.08 E0.2315
G1 X106.792 Y106.573 E0.3287
G1 X103.898 Y105.098 E0.4259
G1 X103.024 Y104.224 E0.4629
G1 X106.041 Y115.326 E0.8073
G1 X108.378 Y120.745 E0.984
G1 X110 Y122.023 E1.0458
G1 X111.622 Y120.745 E1.1076
G1 X113.959 Y115.326 E1.2843
G1 X116.977 Y104.223 E1.6287
G1 E-2.3713 F2400
G92 E0
; Repositioning with retraction
G1 X117.636 Y102.97 F4800
G1 X117.933 Y102.584
G1 X118.202 Y102.169
G1 X119.352 Y99.92
G1 X119.47 Y99.353
G1 X119.893 Y96.704
G1 X119.468 Y94.041
G1 X119.351 Y93.477
G1 X118.204 Y91.232
G1 X117.789 Y90.611
G1 X116.09 Y88.911
G1 X115.792 Y88.703
G1 X115.457 Y88.472
G1 X115.251 Y87.869
G1 E4 F2400
G92 E0
; Contour
G1 Y80.418 E0.223 F1200
G1 X114.097 Y80.206 E0.2581
G1 X112.757 Y79.41 E0.3048
G1 X111.711 Y78.189 E0.3529
G1 X111.047 Y76.67 E0.4025
G1 X110.822 Y75 E0.453
G1 X111.047 Y73.33 E0.5034
G1 X111.711 Y71.811 E0.5531
G1 X112.757 Y70.59 E0.6012
G1 X114.097 Y69.795 E0.6478
G1 X115.251 Y69.581 E0.683
G1 Y69.218 E0.6938
G1 X114.097 Y69.006 E0.7289
G1 X112.757 Y68.21 E0.7756
G1 X111.711 Y66.989 E0.8237
G1 X111.047 Y65.47 E0.8733
G1 X110.822 Y63.8 E0.9238
G1 X111.047 Y62.13 E0.9742
G1 X111.711 Y60.611 E1.0238
G1 X112.757 Y59.39 E1.072
G1 X114.097 Y58.595 E1.1186
G1 X115.251 Y58.381 E1.1538
G1 Y51.07 E1.3726
G1 X104.749 E1.687
G1 Y87.869 E2.7885
G1 X106.792 Y86.827 E2.8572
G1 X110 Y86.319 E2.9544
G1 X113.208 Y86.827 E3.0516
G1 X115.251 Y87.869 E3.1203
G92 E0
; Repositioning
G1 X115.457 Y88.472 F4800
G1 X115.621 Y88.741
; Contour
G1 Y80.102 E0.2586 F1200
G1 X115.6 Y80.106 E0.2592
G1 X114.229 Y79.854 E0.3009
G1 X112.999 Y79.123 E0.3438
G1 X112.028 Y77.99 E0.3884
G1 X111.407 Y76.569 E0.4349
G1 X111.195 Y75 E0.4823
G1 X111.407 Y73.431 E0.5297
G1 X112.028 Y72.01 E0.5761
G1 X112.999 Y70.877 E0.6207
G1 X114.229 Y70.146 E0.6636
G1 X115.6 Y69.892 E0.7053
G1 X115.621 Y69.896 E0.7059
G1 Y68.902 E0.7357
G1 X115.6 Y68.906 E0.7364
G1 X114.229 Y68.654 E0.7781
G1 X112.999 Y67.923 E0.8209
G1 X112.028 Y66.79 E0.8656
G1 X111.407 Y65.369 E0.912
G1 X111.195 Y63.8 E0.9594
G1 X111.407 Y62.231 E1.0068
G1 X112.028 Y60.81 E1.0532
G1 X112.999 Y59.677 E1.0978
G1 X114.229 Y58.946 E1.1407
G1 X115.6 Y58.692 E1.1824
G1 X115.621 Y58.696 E1.1831
G1 Y50.7 E1.4224
G1 X104.379 E1.759
G1 Y88.74 E2.8977
G1 X103.712 Y89.207 E2.922
G1 X102.507 Y90.412 E2.973
G1 X101.529 Y91.809 E3.0241
G1 X100.809 Y93.355 E3.0751
G1 X100.367 Y95.002 E3.1262
G1 X100.219 Y96.7 E3.1772
G1 X100.367 Y98.398 E3.2282
G1 X100.809 Y100.045 E3.2793
G1 X101.529 Y101.591 E3.3303
G1 X102.252 Y102.623 E3.3681
G1 X102.405 Y103.355 E3.3904
G1 X105.691 Y115.448 E3.7656
G1 X108.075 Y120.977 E3.9458
G1 X110 Y122.494 E4.0192
G1 X111.925 Y120.977 E4.0925
G1 X114.309 Y115.448 E4.2727
G1 X117.595 Y103.359 E4.6478
G1 X117.748 Y102.624 E4.6702
G1 X118.471 Y101.591 E4.708
G1 X119.191 Y100.045 E4.759
G1 X119.633 Y98.398 E4.8101
G1 X119.781 Y96.7 E4.8611
G1 X119.633 Y95.002 E4.9121
G1 X119.191 Y93.355 E4.9632
G1 X118.471 Y91.809 E5.0142
G1 X117.493 Y90.412 E5.0653
G1 X116.288 Y89.207 E5.1163
G1 X115.621 Y88.741 E5.1406
G92 E0
; Repositioning
G1 X115.221 Y88.269 F4800
; Contour
G1 X113.092 Y87.183 E0.0715 F1200
G1 X110 Y86.693 E0.1653
G1 X106.908 Y87.183 E0.259
G1 E-3.741 F2400
G92 E0
; Repositioning with retraction
G1 X104.209 Y88.702 F4800
G1 X103.911 Y88.911
G1 X102.211 Y90.61
G1 X101.797 Y91.231
G1 X100.648 Y93.478
G1 X100.53 Y94.043
G1 X100.137 Y96.364
G1 X100.108 Y96.7
G1 X100.53 Y99.357
G1 X100.648 Y99.922
G1 X101.797 Y102.169
G1 X102.067 Y102.583
G1 X102.871 Y103.548
G1 E4 F2400
G92 E0
; Contour
G1 X104.119 Y104.795 E0.0528 F1200
G1 X106.908 Y106.217 E0.1465
G1 X110 Y106.705 E0.2402
G1 X113.092 Y106.217 E0.3339
G1 X115.881 Y104.795 E0.4276
G1 X117.129 Y103.547 E0.4805
G1 E-3.5195 F2400
G92 E0
; Repositioning with retraction
G1 X102.871 Y103.548 F4800
G1 X103.224 Y104.016
G1 X104.376 Y105.823
G1 X106.787 Y107.21
G1 X109.464 Y107.576
G1 X110.536
G1 X113.213 Y107.21
G1 X115.624 Y105.823
G1 X116.458 Y105.133
G1 E4 F2400
G92 E0
; InfillOverhang
G1 X116.132 Y105.376 E0.0122 F1200
G1 X115.756 Y105.568 E0.0249
G1 X116.215 Y106.027 E0.0444
G1 X116.093 Y106.474 E0.0584
G1 X115.38 Y105.76 E0.0887
G1 X115.003 Y105.952 E0.1014
G1 X115.972 Y106.921 E0.1426
G1 X115.851 Y107.368 E0.1566
G1 X114.627 Y106.144 E0.2086
G1 X114.25 Y106.336 E0.2213
G1 X115.729 Y107.814 E0.2842
G1 X115.608 Y108.261 E0.2981
G1 X113.874 Y106.527 E0.3719
G1 X113.497 Y106.719 E0.3846
G1 X115.486 Y108.708 E0.4692
G1 X115.365 Y109.155 E0.4831
G1 X113.07 Y106.86 E0.5807
G1 X112.579 Y106.938 E0.5956
G1 X115.243 Y109.602 E0.709
G1 X115.122 Y110.049 E0.7229
G1 X112.088 Y107.015 E0.8519
G1 X111.597 Y107.093 E0.8669
G1 X115.001 Y110.496 E1.0116
G1 X114.879 Y110.943 E1.0255
G1 X111.107 Y107.17 E1.1859
G1 X110.616 Y107.248 E1.2009
G1 X114.758 Y111.389 E1.377
G1 X114.636 Y111.836 E1.391
G1 X110.125 Y107.325 E1.5828
G1 X109.497 Y107.266 E1.6018
G1 X114.515 Y112.283 E1.8152
G1 X114.393 Y112.73 E1.8291
G1 X108.822 Y107.159 E2.066
G1 X108.147 Y107.052 E2.0866
G1 X114.272 Y113.177 E2.3471
G1 X114.15 Y113.624 E2.361
G1 X107.472 Y106.946 E2.645
G1 X106.797 Y106.839 E2.6656
G1 X114.029 Y114.071 E2.9731
G1 X113.908 Y114.518 E2.987
G1 X105.701 Y106.311 E3.3361
G1 X104.541 Y105.72 E3.3752
G1 X113.786 Y114.964 E3.7684
G1 X113.645 Y115.392 E3.7819
G1 X103.601 Y105.348 E4.2091
G1 X103.813 Y106.128 E4.2334
G1 X113.474 Y115.789 E4.6443
G1 X113.303 Y116.186 E4.6573
G1 X104.025 Y106.908 E5.0519
G1 X104.237 Y107.689 E5.0762
G1 X113.132 Y116.583 E5.4545
G1 X112.96 Y116.98 E5.4675
G1 X104.449 Y108.469 E5.8295
G1 X104.661 Y109.249 E5.8538
G1 X112.789 Y117.377 E6.1995
G1 X112.618 Y117.774 E6.2125
G1 X104.873 Y110.03 E6.5419
G1 X105.085 Y110.81 E6.5662
G1 X112.447 Y118.171 E6.8793
G1 X112.275 Y118.568 E6.8923
G1 X105.297 Y111.59 E7.1891
G1 X105.509 Y112.371 E7.2134
G1 X112.104 Y118.965 E7.4939
G1 X111.933 Y119.362 E7.5069
G1 X105.721 Y113.151 E7.7711
G1 X105.933 Y113.931 E7.7954
G1 X111.761 Y119.76 E8.0433
G1 X111.59 Y120.157 E8.0563
G1 X106.145 Y114.712 E8.2878
G1 X106.428 Y115.563 E8.3148
G1 X111.419 Y120.554 E8.5271
G1 X111.111 Y120.814 E8.5392
G1 X106.859 Y116.562 E8.72
G1 X107.29 Y117.562 E8.7528
G1 X110.793 Y121.064 E8.9017
G1 X110.475 Y121.315 E8.9139
G1 X107.722 Y118.561 E9.031
G1 X108.153 Y119.561 E9.0637
G1 X110.157 Y121.565 E9.149
G1 X108.615 Y120.591 E9.2039
G1 E5.2039 F2400
G92 E0
; Repositioning with retraction
G1 X108.827 Y120.327 F4800
G1 X103.224 Y104.016
G1 X102.963 Y103.501
G1 X102.067 Y102.583
G1 X101.712 Y102.077
G1 X101.25 Y101.135
G1 X100.648 Y99.922
G1 X100.423 Y99.081
G1 X100.183 Y97.567
G1 X100.108 Y96.7
G1 X100.137 Y96.364
G1 X100.183 Y95.833
G1 X100.423 Y94.319
G1 X100.648 Y93.478
G1 X101.015 Y92.69
G1 X101.712 Y91.323
G1 X102.211 Y90.61
G1 X103.911 Y88.911
G1 X104.209 Y88.702
G1 X104.582 Y88.588
G1 E4 F2400
G92 E0
; InfillOverhang
G1 X104.979 Y88.391 E0.0139 F1200
G92 E0
; Repositioning
G1 X105.272 Y88.142 F4800
G1 X104.942 Y87.551
; InfillOverhang
G1 X105.283 Y87.325 E0.0122 F1200
G1 X104.939 Y86.981 E0.0268
G1 Y86.415 E0.0438
G1 X105.658 Y87.134 E0.0742
G1 X106.033 Y86.943 E0.0868
G1 X104.939 Y85.849 E0.1332
G1 Y85.282 E0.1502
G1 X106.408 Y86.751 E0.2124
G1 X106.803 Y86.58 E0.2253
G1 X104.939 Y84.716 E0.3043
G1 Y84.15 E0.3213
G1 X107.292 Y86.503 E0.421
G1 X107.78 Y86.425 E0.4358
G1 X104.939 Y83.584 E0.5562
G1 Y83.018 E0.5732
G1 X108.269 Y86.348 E0.7143
G1 X108.758 Y86.271 E0.7291
G1 X104.939 Y82.451 E0.891
G1 Y81.885 E0.9079
G1 X109.247 Y86.193 E1.0905
G1 X109.735 Y86.116 E1.1053
G1 X104.939 Y81.319 E1.3085
G1 Y80.753 E1.3255
G1 X110.308 Y86.123 E1.553
G1 X110.981 Y86.229 E1.5735
G1 X104.939 Y80.186 E1.8295
G1 Y79.62 E1.8465
G1 X111.654 Y86.336 E2.131
G1 X112.327 Y86.443 E2.1514
G1 X104.939 Y79.054 E2.4645
G1 Y78.488 E2.4815
G1 X113 Y86.549 E2.8231
G1 X113.952 Y86.935 E2.8538
G1 X104.939 Y77.922 E3.2357
G1 Y77.355 E3.2527
G1 X115.081 Y87.498 E3.6825
G1 Y86.932 E3.6994
G1 X104.939 Y76.789 E4.1292
G1 Y76.223 E4.1462
G1 X115.081 Y86.366 E4.576
G1 Y85.799 E4.5929
G1 X104.939 Y75.657 E5.0227
G1 Y75.091 E5.0397
G1 X115.081 Y85.233 E5.4694
G1 Y84.667 E5.4864
G1 X104.939 Y74.524 E5.9162
G1 Y73.958 E5.9331
G1 X115.081 Y84.101 E6.3629
G1 Y83.535 E6.3799
G1 X104.939 Y73.392 E6.8097
G1 Y72.826 E6.8266
G1 X115.081 Y82.968 E7.2564
G1 Y82.402 E7.2734
G1 X104.939 Y72.259 E7.7031
G1 Y71.693 E7.7201
G1 X111.457 Y78.212 E7.9963
G1 X111.017 Y77.206 E8.0292
G1 X104.939 Y71.127 E8.2868
G1 Y70.561 E8.3037
G1 X110.765 Y76.387 E8.5506
G1 X110.677 Y75.733 E8.5704
G1 X104.939 Y69.995 E8.8136
G1 Y69.428 E8.8305
G1 X110.588 Y75.078 E9.0699
G1 X110.637 Y74.561 E9.0855
G1 X104.939 Y68.862 E9.327
G1 Y68.296 E9.3439
G1 X110.704 Y74.062 E9.5882
G1 X110.772 Y73.563 E9.6033
G1 X104.939 Y67.73 E9.8505
G1 Y67.163 E9.8674
G1 X110.881 Y73.106 E10.1192
G1 X111.053 Y72.712 E10.1321
G1 X104.939 Y66.597 E10.3912
G1 Y66.031 E10.4082
G1 X111.226 Y72.318 E10.6746
G1 X111.398 Y71.924 E10.6875
G1 X104.939 Y65.465 E10.9612
G1 Y64.899 E10.9781
G1 X111.604 Y71.564 E11.2606
G1 X111.865 Y71.259 E11.2726
G1 X104.939 Y64.332 E11.5661
G1 Y63.766 E11.5831
G1 X112.127 Y70.954 E11.8877
G1 X112.388 Y70.649 E11.8997
G1 X104.939 Y63.2 E12.2153
G1 Y62.634 E12.2323
G1 X112.667 Y70.362 E12.5598
G1 X113.022 Y70.151 E12.5722
G1 X104.939 Y62.068 E12.9147
G1 Y61.501 E12.9317
G1 X113.378 Y69.94 E13.2893
G1 X113.733 Y69.729 E13.3016
G1 X104.939 Y60.935 E13.6743
G1 Y60.369 E13.6912
G1 X111.36 Y66.791 E13.9634
G1 X110.921 Y65.785 E13.9962
G1 X104.939 Y59.803 E14.2497
G1 Y59.236 E14.2667
G1 X110.746 Y65.043 E14.5128
G1 X110.657 Y64.389 E14.5325
G1 X104.939 Y58.67 E14.7749
G1 Y58.104 E14.7918
G1 X110.585 Y63.75 E15.0311
G1 X110.652 Y63.251 E15.0461
G1 X104.939 Y57.538 E15.2882
G1 Y56.972 E15.3052
G1 X110.719 Y62.752 E15.5501
G1 X110.787 Y62.253 E15.5652
G1 X104.939 Y56.405 E15.813
G1 Y55.839 E15.83
G1 X110.919 Y61.819 E16.0834
G1 X111.091 Y61.425 E16.0963
G1 X104.939 Y55.273 E16.357
G1 Y54.707 E16.3739
G1 X111.263 Y61.031 E16.6419
G1 X111.436 Y60.637 E16.6548
G1 X104.939 Y54.14 E16.9301
G1 Y53.574 E16.9471
G1 X111.662 Y60.297 E17.2319
G1 X111.923 Y59.992 E17.244
G1 X104.939 Y53.008 E17.5399
G1 Y52.442 E17.5569
G1 X112.184 Y59.687 E17.8639
G1 X112.445 Y59.382 E17.8759
G1 X104.939 Y51.876 E18.194
G1 Y51.309 E18.211
G1 X112.745 Y59.116 E18.5417
G1 X113.1 Y58.905 E18.5541
G1 X105.508 Y51.312 E18.8759
G1 X106.074 E18.8928
G1 X113.456 Y58.694 E19.2056
G1 X113.811 Y58.483 E19.218
G1 X106.64 Y51.312 E19.5219
G1 X107.206 E19.5388
G1 X114.22 Y58.326 E19.836
G1 X114.698 Y58.237 E19.8506
G1 X107.772 Y51.312 E20.144
G1 X108.339 E20.161
G1 X115.071 Y58.045 E20.4463
G1 Y57.478 E20.4632
G1 X108.905 Y51.312 E20.7245
G1 X109.471 E20.7415
G1 X115.071 Y56.912 E20.9788
G1 Y56.346 E20.9958
G1 X110.037 Y51.312 E21.2091
G1 X110.603 E21.226
G1 X115.071 Y55.78 E21.4154
G1 Y55.214 E21.4323
G1 X111.17 Y51.312 E21.5976
G1 X111.736 E21.6146
G1 X115.071 Y54.647 E21.7559
G1 Y54.081 E21.7729
G1 X112.302 Y51.312 E21.8902
G1 X112.868 E21.9072
G1 X115.071 Y53.515 E22.0006
G1 Y52.949 E22.0175
G1 X113.435 Y51.312 E22.0869
G1 X114.001 E22.1038
G1 X115.071 Y52.382 E22.1492
G1 Y51.816 E22.1662
G1 X114.567 Y51.312 E22.1875
G1 X115.071 Y51.25 E22.2027
G1 E18.2027 F2400
G92 E0
; Repositioning with retraction
G1 X110.962 Y61.27 F4800
G1 X111.062 Y64.952
G1 X111.238 Y66.458
G1 X111.788 Y67.81
G1 X112.656 Y68.87
G1 X112.878 Y68.941
G1 X113.505 Y68.935
G1 E4 F2400
G92 E0
; InfillOverhang
G1 X114.115 Y69.545 E0.0258 F1200
G1 X114.523 Y69.387 E0.039
G1 E-3.961 F2400
G92 E0
; Repositioning with retraction
G1 X113.627 Y69.941 F4800
G1 X112.45 Y70.944
G1 X111.074 Y74.563
G1 X110.836 Y76.061
G1 X110.975 Y77.538
G1 X111.482 Y78.844
G1 X112.314 Y79.848
G1 X113.199 Y79.953
G1 E4 F2400
G92 E0
; InfillOverhang
G1 X115.081 Y81.836 E0.0798 F1200
G1 Y81.27 E0.0967
G1 X114.301 Y80.489 E0.1298
G1 X115.012 Y80.634 E0.1516
G1 E-3.8484 F2400
G92 E0
        ; New Layer
; layer 3, Z = 0.839
; layer time : 00:01:05
; Repositioning
G0 Z0.839 F1000.02
; Repositioning with retraction
G1 X115.931 Y87.561 F4800
G1 X116.157 Y87.948
G1 X118.093 Y90.582
G1 X118.336 Y90.993
G1 X119.654 Y93.445
G1 X120.204 Y96.7
G1 X119.654 Y99.955
G1 X117.945 Y103.82
G1 E4 F2400
G92 E0
; Contour
G1 X116.34 Y105.425 E0.068 F1200
G1 X113.333 Y106.958 E0.169
G1 X110 Y107.485 E0.27
G1 X106.667 Y106.958 E0.371
G1 X103.66 Y105.425 E0.472
G1 X102.064 Y103.829 E0.5396
G1 X103.831 Y112.317 E0.7991
G1 X106.657 Y122.716 E1.1217
G1 X108.664 Y127.37 E1.2734
G1 X110 Y128.423 E1.3244
G1 X111.336 Y127.37 E1.3753
G1 X113.343 Y122.716 E1.527
G1 X116.169 Y112.32 E1.8495
G1 X117.945 Y103.82 E2.1094
G1 E-1.8906 F2400
G92 E0
; Repositioning with retraction
G1 X119.654 Y99.955 F4800
G1 X120.204 Y96.7
G1 X119.654 Y93.445
G1 X118.336 Y90.993
G1 X118.093 Y90.582
G1 X115.76 Y87.679
G1 E4 F2400
G92 E0
; Contour
G1 Y80.453 E0.2163 F2400
G1 X115.6 Y80.482 E0.2212
G1 X114.097 Y80.206 E0.2669
G1 X112.757 Y79.41 E0.3136
G1 X111.711 Y78.189 E0.3617
G1 X111.047 Y76.67 E0.4113
G1 X110.822 Y75 E0.4618
G1 X111.047 Y73.33 E0.5122
G1 X111.711 Y71.811 E0.5618
G1 X112.757 Y70.59 E0.61
G1 X114.097 Y69.795 E0.6566
G1 X115.6 Y69.516 E0.7024
G1 X115.76 Y69.546 E0.7072
G1 Y69.253 E0.716
G1 X115.6 Y69.282 E0.7209
G1 X114.097 Y69.006 E0.7666
G1 X112.757 Y68.21 E0.8133
G1 X111.711 Y66.989 E0.8614
G1 X111.047 Y65.47 E0.911
G1 X110.822 Y63.8 E0.9615
G1 X111.047 Y62.13 E1.0119
G1 X111.711 Y60.611 E1.0615
G1 X112.757 Y59.39 E1.1096
G1 X114.097 Y58.595 E1.1563
G1 X115.6 Y58.316 E1.202
G1 X115.76 Y58.346 E1.2069
G1 Y51.07 E1.4247
G1 X104.24 E1.7696
G1 Y87.679 E2.8654
G1 X106.667 Y86.442 E2.947
G1 X110 Y85.914 E3.048
G1 X113.333 Y86.442 E3.149
G1 X115.76 Y87.679 E3.2306
G92 E0
; Repositioning
G1 X116.13 Y87.691 F4800
            ; Contour
; Preset : Recommended
; Path width : 0.4
; Path height : 0.2
G1 X116.13 Y87.691 F1200
G1 Y80.008 E0.23
G1 X115.6 Y80.106 E0.2461
G1 X114.229 Y79.854 E0.2878
G1 X112.999 Y79.123 E0.3307
G1 X112.028 Y77.99 E0.3753
G1 X111.407 Y76.569 E0.4217
G1 X111.195 Y75 E0.4691
G1 X111.407 Y73.431 E0.5165
G1 X112.028 Y72.01 E0.563
G1 X112.999 Y70.877 E0.6076
G1 X114.229 Y70.146 E0.6505
G1 X115.6 Y69.892 E0.6922
G1 X116.13 Y69.991 E0.7083
G1 Y68.808 E0.7437
G1 X115.6 Y68.906 E0.7599
G1 X114.229 Y68.654 E0.8016
G1 X112.999 Y67.923 E0.8444
G1 X112.028 Y66.79 E0.8891
G1 X111.407 Y65.369 E0.9355
G1 X111.195 Y63.8 E0.9829
G1 X111.407 Y62.231 E1.0303
G1 X112.028 Y60.81 E1.0767
G1 X112.999 Y59.677 E1.1214
G1 X114.229 Y58.946 E1.1642
G1 X115.6 Y58.692 E1.2059
G1 X116.13 Y58.791 E1.2221
G1 Y50.7 E1.4643
G1 X103.87 E1.8313
G1 Y87.691 E2.9386
G1 X102.969 Y88.321 E2.9715
G1 X101.621 Y89.669 E3.0285
G1 X100.528 Y91.231 E3.0856
G1 X99.722 Y92.959 E3.1427
G1 X99.228 Y94.801 E3.1997
G1 X99.063 Y96.7 E3.2568
G1 X99.228 Y98.599 E3.3139
G1 X99.722 Y100.441 E3.371
G1 X100.528 Y102.168 E3.428
G1 X101.681 Y103.804 E3.4879
G1 X103.471 Y112.403 E3.7508
G1 X106.306 Y122.839 E4.0745
G1 X108.361 Y127.602 E4.2298
G1 X110 Y128.894 E4.2923
G1 X111.639 Y127.602 E4.3548
G1 X113.694 Y122.839 E4.5101
G1 X116.529 Y112.407 E4.8337
G1 X118.328 Y103.795 E5.097
G1 X119.472 Y102.168 E5.1565
G1 X120.278 Y100.441 E5.2136
G1 X120.772 Y98.599 E5.2707
G1 X120.937 Y96.7 E5.3277
G1 X120.772 Y94.801 E5.3848
G1 X120.278 Y92.959 E5.4419
G1 X119.472 Y91.231 E5.4989
G1 X118.379 Y89.669 E5.556
G1 X117.031 Y88.321 E5.6131
G1 X116.13 Y87.691 E5.646
G92 E0
; Repositioning
G1 X116.102 Y88.302 F4800
; Contour
G1 X113.208 Y86.827 E0.0972 F1200
G1 X110 Y86.319 E0.1945
G1 X106.792 Y86.827 E0.2917
G1 X103.912 Y88.295 E0.3885
G1 X101.602 Y90.598 E0.4861
G1 X100.127 Y93.492 E0.5833
G1 X99.62 Y96.7 E0.6805
G1 X100.127 Y99.908 E0.7778
G1 X101.602 Y102.802 E0.875
G1 X103.898 Y105.098 E0.9722
G1 X106.792 Y106.573 E1.0694
G1 X110 Y107.08 E1.1666
G1 X113.208 Y106.573 E1.2639
G1 X116.102 Y105.098 E1.3611
G1 X118.398 Y102.802 E1.4583
G1 X119.873 Y99.908 E1.5555
G1 X120.381 Y96.7 E1.6527
G1 X119.873 Y93.492 E1.75
G1 X118.405 Y90.612 E1.8467
G1 X116.102 Y88.302 E1.9444
G92 E0
; Repositioning
G1 X115.882 Y88.605 F4800
; Contour
G1 X113.092 Y87.183 E0.0937 F1200
G1 X110 Y86.693 E0.1874
G1 X106.908 Y87.183 E0.2812
G1 X104.132 Y88.598 E0.3744
G1 X101.905 Y90.818 E0.4685
G1 X100.483 Y93.608 E0.5623
G1 X99.995 Y96.7 E0.656
G1 X100.483 Y99.792 E0.7497
G1 X101.905 Y102.581 E0.8434
G1 X104.119 Y104.795 E0.9371
G1 X106.908 Y106.217 E1.0308
G1 X110 Y106.705 E1.1245
G1 X113.092 Y106.217 E1.2182
G1 X115.881 Y104.795 E1.3119
G1 X118.095 Y102.581 E1.4056
G1 X119.517 Y99.792 E1.4994
G1 X120.007 Y96.7 E1.5931
G1 X119.517 Y93.608 E1.6868
G1 X118.102 Y90.832 E1.7801
G1 X115.882 Y88.605 E1.8742
G92 E0
; Repositioning
G1 X116.046 Y88.178 F4800
G1 X115.133 Y87.51
G1 X115.137 Y87.457
G1 X115.43 Y87.141
; Infill
G1 X115.054 Y86.949 E0.0127 F2400
G1 X115.43 Y86.572 E0.0287
G1 Y86.004 E0.0458
G1 X114.678 Y86.757 E0.0778
G1 X114.301 Y86.565 E0.0905
G1 X115.43 Y85.436 E0.1385
G1 Y84.868 E0.1556
G1 X113.888 Y86.41 E0.2212
G1 X113.541 Y86.189 E0.2335
G1 X115.43 Y84.3 E0.3138
G1 Y83.732 E0.3309
G1 X113.326 Y85.836 E0.4204
G1 Y85.268 E0.4375
G1 X115.43 Y83.163 E0.527
G1 Y82.595 E0.544
G1 X113.326 Y84.7 E0.6335
G1 Y84.132 E0.6506
G1 X115.43 Y82.027 E0.7401
G1 Y81.459 E0.7572
G1 X113.326 Y83.563 E0.8467
G1 Y82.995 E0.8637
G1 X115.43 Y80.891 E0.9532
G1 X115.038 Y80.714 E0.9661
G1 X113.326 Y82.427 E1.0389
G1 Y81.859 E1.056
G1 X114.559 Y80.626 E1.1084
G1 X114.146 Y80.471 E1.1217
G1 X113.326 Y81.291 E1.1566
G1 Y80.723 E1.1737
G1 X113.704 Y80.344 E1.1897
G1 X113.337 Y80.143 E1.2023
G92 E0
; Repositioning
G1 X106.674 Y86.117 F4800
; Infill
G1 Y85.55 E0.017 F2400
G1 X105.619 Y86.606 E0.0617
G1 X104.57 Y87.089 E0.0963
G1 X106.674 Y84.984 E0.1855
G1 Y84.418 E0.2025
G1 X104.57 Y86.522 E0.2917
G1 Y85.956 E0.3086
G1 X106.674 Y83.852 E0.3978
G1 Y83.285 E0.4148
G1 X104.57 Y85.39 E0.504
G1 Y84.823 E0.5209
G1 X106.674 Y82.719 E0.6101
G1 Y82.153 E0.6271
G1 X104.57 Y84.257 E0.7163
G1 Y83.691 E0.7333
G1 X106.674 Y81.586 E0.8225
G1 Y81.02 E0.8394
G1 X104.57 Y83.125 E0.9286
G1 Y82.558 E0.9456
G1 X106.674 Y80.454 E1.0348
G1 Y79.887 E1.0517
G1 X104.57 Y81.992 E1.1409
G1 Y81.426 E1.1579
G1 X106.674 Y79.321 E1.2471
G1 Y78.755 E1.2641
G1 X104.57 Y80.859 E1.3532
G1 Y80.293 E1.3702
G1 X106.674 Y78.189 E1.4594
G1 Y77.622 E1.4764
G1 X104.57 Y79.727 E1.5656
G1 Y79.16 E1.5825
G1 X106.674 Y77.056 E1.6717
G1 Y76.49 E1.6887
G1 X104.57 Y78.594 E1.7779
G1 Y78.028 E1.7949
G1 X106.674 Y75.923 E1.884
G1 Y75.357 E1.901
G1 X104.57 Y77.461 E1.9902
G1 Y76.895 E2.0072
G1 X106.674 Y74.791 E2.0964
G1 Y74.224 E2.1133
G1 X104.57 Y76.329 E2.2025
G1 Y75.763 E2.2195
G1 X106.674 Y73.658 E2.3087
G1 Y73.092 E2.3256
G1 X104.57 Y75.196 E2.4148
G1 Y74.63 E2.4318
G1 X106.674 Y72.525 E2.521
G1 Y71.959 E2.538
G1 X104.57 Y74.064 E2.6271
G1 Y73.497 E2.6441
G1 X106.674 Y71.393 E2.7333
G1 Y70.827 E2.7503
G1 X104.57 Y72.931 E2.8395
G1 Y72.365 E2.8564
G1 X106.674 Y70.26 E2.9456
G1 Y69.694 E2.9626
G1 X104.57 Y71.798 E3.0518
G1 Y71.232 E3.0688
G1 X106.674 Y69.128 E3.1579
G1 Y68.561 E3.1749
G1 X104.57 Y70.666 E3.2641
G1 Y70.099 E3.2811
G1 X106.674 Y67.995 E3.3703
G1 Y67.429 E3.3872
G1 X104.57 Y69.533 E3.4764
G1 Y68.967 E3.4934
G1 X106.674 Y66.862 E3.5826
G1 Y66.296 E3.5995
G1 X104.57 Y68.401 E3.6887
G1 Y67.834 E3.7057
G1 X106.674 Y65.73 E3.7949
G1 Y65.163 E3.8119
G1 X104.57 Y67.268 E3.901
G1 Y66.702 E3.918
G1 X106.674 Y64.597 E4.0072
G1 Y64.031 E4.0242
G1 X104.57 Y66.135 E4.1134
G1 Y65.569 E4.1303
G1 X106.674 Y63.465 E4.2195
G1 Y62.898 E4.2365
G1 X104.57 Y65.003 E4.3257
G1 Y64.436 E4.3426
G1 X106.674 Y62.332 E4.4318
G1 Y61.766 E4.4488
G1 X104.57 Y63.87 E4.538
G1 Y63.304 E4.555
G1 X106.674 Y61.199 E4.6441
G1 Y60.633 E4.6611
G1 X104.57 Y62.737 E4.7503
G1 Y62.171 E4.7673
G1 X106.674 Y60.067 E4.8565
G1 Y59.5 E4.8734
G1 X104.57 Y61.605 E4.9626
G1 Y61.039 E4.9796
G1 X106.674 Y58.934 E5.0688
G1 Y58.368 E5.0857
G1 X104.57 Y60.472 E5.1749
G1 Y59.906 E5.1919
G1 X106.674 Y57.801 E5.2811
G1 Y57.235 E5.2981
G1 X104.57 Y59.34 E5.3873
G1 Y58.773 E5.4042
G1 X106.674 Y56.669 E5.4934
G1 Y56.103 E5.5104
G1 X104.57 Y58.207 E5.5996
G1 Y57.641 E5.6165
G1 X106.674 Y55.536 E5.7057
G1 Y54.97 E5.7227
G1 X104.57 Y57.074 E5.8119
G1 Y56.508 E5.8288
G1 X106.674 Y54.404 E5.918
G1 Y53.837 E5.935
G1 X104.57 Y55.942 E6.0242
G1 Y55.375 E6.0412
G1 X106.674 Y53.271 E6.1303
G1 Y52.705 E6.1473
G1 X104.57 Y54.809 E6.2365
G1 Y54.243 E6.2535
G1 X106.674 Y52.138 E6.3427
G1 Y51.572 E6.3596
G1 X104.57 Y53.677 E6.4488
G1 Y53.11 E6.4658
G1 X106.29 Y51.39 E6.5387
G1 X105.714 Y51.4 E6.556
G1 X104.57 Y52.544 E6.6044
G1 Y51.978 E6.6214
G1 X105.147 Y51.4 E6.6459
G1 X104.575 Y51.406 E6.663
G92 E0
; Repositioning
G1 X113.331 Y51.396 F4800
; Infill
G1 X113.986 Y51.322 E0.0203 F2400
G1 X113.326 Y51.982 E0.049
G1 Y52.563 E0.0668
G1 X114.489 Y51.4 E0.1174
G1 X115.07 E0.1353
G1 X113.326 Y53.144 E0.2111
G1 Y53.725 E0.229
G1 X115.43 Y51.621 E0.3205
G1 Y52.202 E0.3383
G1 X113.326 Y54.306 E0.4298
G1 Y54.887 E0.4477
G1 X115.43 Y52.783 E0.5392
G1 Y53.364 E0.5571
G1 X113.326 Y55.468 E0.6486
G1 Y56.049 E0.6664
G1 X115.43 Y53.945 E0.7579
G1 Y54.526 E0.7758
G1 X113.326 Y56.63 E0.8673
G1 Y57.211 E0.8852
G1 X115.43 Y55.107 E0.9767
G1 Y55.688 E0.9945
G1 X113.326 Y57.792 E1.086
G1 Y58.373 E1.1039
G1 X115.43 Y56.269 E1.1954
G1 Y56.85 E1.2132
G1 X113.888 Y58.392 E1.2803
G1 X114.717 Y58.144 E1.3069
G1 X115.43 Y57.431 E1.3379
G1 Y58.012 E1.3558
G1 E-2.6442
G92 E0
; Repositioning with retraction
G1 X114.575 Y57.968 F4800
G1 X113.518 Y58.697
G1 X110.932 Y61.29
G1 X111.026 Y64.941
G1 X111.199 Y66.445
G1 X111.746 Y67.794
G1 X112.612 Y68.851
G1 X112.878 Y68.941
G1 X113.349 Y68.962
G1 E4 F2400
G92 E0
; Infill
G1 X113.808 Y69.229 E0.0203 F2400
G1 X113.346 Y69.691 E0.0454
G1 X114.361 Y69.4 E0.0859
G1 E-3.9141
G92 E0
; Repositioning with retraction
G1 X113.627 Y69.941 F4800
G1 X112.45 Y70.944
G1 X104.867 Y87.51
G1 X103.96 Y88.175
G1 X103.546 Y88.465
G1 X101.768 Y90.239
G1 X101.211 Y91.034
G1 X100.105 Y93.28
G1 X99.853 Y94.218
G1 X99.614 Y95.733
G1 X99.53 Y96.7
G1 X99.614 Y97.667
G1 X99.853 Y99.182
G1 X100.105 Y100.12
G1 X101.211 Y102.366
G1 X101.781 Y103.174
G1 X102.651 Y104.2
G1 X102.619 Y104.862
G1 E4 F2400
G92 E0
; InfillOverhang
G1 X102.918 Y105.135 E0.0122 F1200
G1 X102.748 Y105.877 E0.0352
G1 X103.203 Y105.421 E0.0547
G1 X103.495 Y105.701 E0.067
G1 X102.846 Y106.35 E0.0947
G1 X102.944 Y106.823 E0.1093
G1 X103.932 Y105.836 E0.1516
G1 X104.281 Y106.058 E0.1641
G1 X103.043 Y107.296 E0.217
G1 X103.141 Y107.769 E0.2316
G1 X104.638 Y106.272 E0.2956
G1 X105.017 Y106.465 E0.3085
G1 X103.24 Y108.242 E0.3845
G1 X103.338 Y108.715 E0.3991
G1 X105.446 Y106.607 E0.4892
G1 X105.825 Y106.8 E0.5021
G1 X103.437 Y109.188 E0.6042
G1 X103.535 Y109.661 E0.6188
G1 X106.203 Y106.993 E0.7329
G1 X106.582 Y107.186 E0.7458
G1 X103.634 Y110.134 E0.8718
G1 X103.732 Y110.607 E0.8864
G1 X107.051 Y107.288 E1.0284
G1 X107.506 Y107.405 E1.0426
G1 X103.831 Y111.08 E1.1998
G1 X103.929 Y111.553 E1.2144
G1 X107.872 Y107.61 E1.383
G1 X108.192 Y107.862 E1.3953
G1 X104.028 Y112.026 E1.5734
G1 X104.138 Y112.487 E1.5877
G1 X108.512 Y108.114 E1.7748
G1 X108.831 Y108.366 E1.7871
G1 X104.26 Y112.936 E1.9825
G1 X104.382 Y113.386 E1.9966
G1 X109.151 Y108.617 E2.2005
G1 X109.47 Y108.869 E2.2128
G1 X104.505 Y113.835 E2.4252
G1 X104.627 Y114.284 E2.4393
G1 X109.79 Y109.121 E2.6601
G92 E0
; Repositioning
G1 X110.924 Y108.559 F4800
; InfillOverhang
G1 X104.749 Y114.734 E0.2641 F1200
G1 X104.871 Y115.183 E0.2782
G1 X112.679 Y107.375 E0.6121
G1 X113.461 Y107.164 E0.6366
G1 X104.993 Y115.633 E0.9987
G1 X105.115 Y116.082 E1.0128
G1 X114.627 Y106.57 E1.4196
G1 X115.637 Y106.132 E1.4529
G1 X105.237 Y116.531 E1.8977
G1 X105.359 Y116.981 E1.9117
G1 X117.38 Y104.96 E2.4258
G1 X117.317 Y105.595 E2.4451
G1 X105.481 Y117.43 E2.9513
G1 X105.603 Y117.879 E2.9653
G1 X117.166 Y106.317 E3.4598
G1 X117.015 Y107.04 E3.4821
G1 X105.726 Y118.329 E3.9649
G1 X105.848 Y118.778 E3.979
G1 X116.864 Y107.762 E4.4501
G1 X116.713 Y108.485 E4.4725
G1 X105.97 Y119.228 E4.9319
G1 X106.092 Y119.677 E4.946
G1 X116.562 Y109.207 E5.3938
G1 X116.411 Y109.929 E5.4161
G1 X106.214 Y120.126 E5.8522
G1 X106.336 Y120.576 E5.8662
G1 X116.26 Y110.652 E6.2907
G1 X116.109 Y111.374 E6.313
G1 X106.458 Y121.025 E6.7257
G1 X106.58 Y121.474 E6.7398
G1 X115.958 Y112.097 E7.1408
G1 X115.759 Y112.867 E7.1649
G1 X106.702 Y121.924 E7.5522
G1 X106.824 Y122.373 E7.5663
G1 X115.546 Y113.652 E7.9393
G1 X115.332 Y114.437 E7.9639
G1 X106.968 Y122.801 E8.3216
G1 X107.14 Y123.201 E8.3347
G1 X115.119 Y115.222 E8.676
G1 X114.906 Y116.006 E8.7006
G1 X107.312 Y123.6 E9.0253
G1 X107.484 Y123.999 E9.0385
G1 X114.693 Y116.791 E9.3467
G1 X114.479 Y117.576 E9.3713
G1 X107.657 Y124.398 E9.6631
G1 X107.829 Y124.798 E9.6763
G1 X114.266 Y118.36 E9.9516
G1 X114.053 Y119.145 E9.9762
G1 X108.001 Y125.197 E10.235
G1 X108.173 Y125.596 E10.2481
G1 X113.84 Y119.93 E10.4904
G1 X113.626 Y120.715 E10.515
G1 X108.346 Y125.995 E10.7409
G1 X108.518 Y126.395 E10.754
G1 X113.413 Y121.499 E10.9634
G1 X113.2 Y122.284 E10.988
G1 X108.69 Y126.794 E11.1808
G1 X108.862 Y127.193 E11.194
G1 X112.864 Y123.191 E11.3651
G1 X112.431 Y124.196 E11.3982
G1 X109.175 Y127.452 E11.5375
G1 X109.495 Y127.704 E11.5498
G1 X111.997 Y125.201 E11.6568
G1 X111.563 Y126.206 E11.6899
G1 X109.814 Y127.956 E11.7647
G1 X111.13 Y127.211 E11.8104
G1 E7.8104 F2400
G92 E0
; Repositioning with retraction
G1 X102.651 Y104.2 F4800
G1 X102.1 Y103.582
G1 E4 F2400
G92 E0
; InfillOverhang
G1 X101.643 Y103.252 E0.0234 F1200
G1 X101.267 Y102.842 E0.0466
G92 E0
; Repositioning
G1 X101.271 Y102.751 F4800
; InfillOverhang
G1 X101.054 Y102.391 E0.0128 F1200
G1 X100.838 Y102.031 E0.0256
G1 X100.645 Y101.647 E0.0387
G1 X100.456 Y101.259 E0.0519
G1 X100.267 Y100.871 E0.0651
G1 X100.078 Y100.484 E0.0782
G1 X99.907 Y100.078 E0.0916
G92 E0
; Repositioning
G1 X99.839 Y99.824 F4800
; InfillOverhang
G1 X99.74 Y99.356 E0.0144 F1200
G1 X99.641 Y98.888 E0.0287
G1 X99.548 Y98.413 E0.0432
G1 X99.487 Y97.908 E0.0585
G1 X99.425 Y97.402 E0.0738
G1 X99.364 Y96.897 E0.0891
G1 X99.39 Y96.304 E0.1069
G1 X99.47 Y95.657 E0.1264
G1 X99.477 Y95.083 E0.1437
G1 X99.678 Y94.314 E0.1675
G1 X99.835 Y93.59 E0.1897
G92 E0
; Repositioning
G1 X99.904 Y93.33 F4800
; InfillOverhang
G1 X100.587 Y91.992 E0.0521 F1200
G1 X101.261 Y90.661 E0.104
G92 E0
; Repositioning
G1 X101.768 Y90.239 F4800
G1 X101.804 Y89.882
; InfillOverhang
G1 X103.182 Y88.504 E0.0583 F1200
G1 E-3.9417 F2400
G92 E0
; Repositioning with retraction
G1 X103.546 Y88.465 F4800
G1 X103.96 Y88.175
G1 X104.867 Y87.51
G1 X112.613 Y79.72
G1 E4 F2400
G92 E0
; Infill
G1 X106.794 Y85.539 E0.2463 F2400
G1 Y84.167 E0.2874
G1 X108.444 Y85.816 E0.3572
G1 X110 Y85.569 E0.4044
G1 X112.089 Y85.901 E0.4677
G1 X113.206 Y84.784 E0.515
G1 Y84.921 E0.5191
G1 X106.794 Y78.51 E0.7905
G1 Y79.882 E0.8316
G1 X110.621 Y76.055 E0.9936
G1 X110.717 Y76.763 E1.015
G1 X110.727 Y76.786 E1.0157
G1 X106.794 Y72.853 E1.1822
G1 Y74.225 E1.2233
G1 X112.542 Y68.477 E1.4666
G1 X113.207 Y68.872 E1.4898
G1 X113.206 Y68.873
G1 Y69.927 E1.5214
G1 X113.207 Y69.928
G1 X112.535 Y70.326 E1.5448
G1 X111.42 Y71.628 E1.5961
G1 X111.361 Y71.763 E1.6005
G1 X106.794 Y67.196 E1.7938
G1 Y68.568 E1.8349
G1 X110.608 Y64.755 E1.9964
G1 X110.701 Y65.446 E2.0172
G1 X106.794 Y61.539 E2.1826
G1 Y62.911 E2.2237
G1 X113.206 Y56.5 E2.4951
G1 Y56.637 E2.4992
G1 X107.979 Y51.41 E2.7205
G1 X106.982 E2.7504
G1 X106.794 Y51.598 E2.7583
G1 Y55.883 E2.8866
G1 X111.396 Y60.484 E3.0814
G92 E0
; Repositioning
G1 X106.794 Y57.255 F4800
; Infill
G1 X112.639 Y51.41 E0.2474 F2400
G1 E-3.7526
G92 E0
; Repositioning with retraction
G1 X110.932 Y61.29 F4800
G1 X110.769 Y76.023
G1 X110.903 Y77.49
G1 X111.407 Y78.784
G1 X115.133 Y87.51
G1 X116.046 Y88.178
G1 X116.393 Y88.208
G1 E4 F2400
G92 E0
; InfillOverhang
G1 X116.723 Y88.485 E0.0138 F1200
G1 X117.034 Y88.78 E0.0276
G1 X117.337 Y89.084 E0.0414
G1 X117.64 Y89.387 E0.0551
G1 X117.943 Y89.691 E0.0689
G1 X118.236 Y90.004 E0.0827
G1 X118.512 Y90.335 E0.0965
G92 E0
; Repositioning
G1 X118.724 Y90.638 F4800
; InfillOverhang
G1 X118.941 Y91.001 E0.013 F1200
G1 X119.159 Y91.364 E0.026
G1 X119.353 Y91.75 E0.0393
G1 X119.543 Y92.141 E0.0526
G1 X119.734 Y92.531 E0.066
G1 X119.924 Y92.921 E0.0793
G1 X120.096 Y93.33 E0.0929
G92 E0
; Repositioning
G1 X120.163 Y93.585 F4800
; InfillOverhang
G1 X120.262 Y94.053 E0.0144 F1200
G1 X120.361 Y94.522 E0.0287
G1 X120.453 Y94.996 E0.0432
G1 X120.515 Y95.502 E0.0585
G1 X120.576 Y96.007 E0.0738
G1 X120.638 Y96.513 E0.0891
G1 X120.61 Y97.108 E0.1069
G1 X120.529 Y97.756 E0.1265
G1 X120.522 Y98.33 E0.1437
G1 X120.319 Y99.1 E0.1676
G1 X120.162 Y99.824 E0.1899
G92 E0
; Repositioning
G1 X120.088 Y100.089 F4800
; InfillOverhang
G1 X119.618 Y101.211 E0.042 F1200
G1 X118.726 Y102.757 E0.1037
G1 E-3.8963 F2400
G92 E0
            ; New Layer
; layer 4, Z = 1.039
; layer time : 00:01:23
; Repositioning
G0 Z1.039 F1000.02
; Repositioning with retraction
G1 X119.675 Y99.921 F4800
G1 X120.204 Y96.7
G1 X119.675 Y93.479
G1 X118.329 Y90.894
G1 X116.144 Y87.016
G1 E4 F2400
G92 E0
; Contour
G1 Y80.382 E0.1986 F1200
G1 X115.6 Y80.482 E0.2151
G1 X114.097 Y80.206 E0.2609
G1 X112.757 Y79.41 E0.3075
G1 X111.711 Y78.189 E0.3556
G1 X111.047 Y76.67 E0.4053
G1 X110.822 Y75 E0.4557
G1 X111.047 Y73.33 E0.5061
G1 X111.711 Y71.811 E0.5558
G1 X112.757 Y70.59 E0.6039
G1 X114.097 Y69.795 E0.6505
G1 X115.6 Y69.516 E0.6963
G1 X116.144 Y69.617 E0.7128
G1 Y69.182 E0.7258
G1 X115.6 Y69.282 E0.7424
G1 X114.097 Y69.006 E0.7881
G1 X112.757 Y68.21 E0.8348
G1 X111.711 Y66.989 E0.8829
G1 X111.047 Y65.47 E0.9325
G1 X110.822 Y63.8 E0.983
G1 X111.047 Y62.13 E1.0334
G1 X111.711 Y60.611 E1.083
G1 X112.757 Y59.39 E1.1312
G1 X114.097 Y58.595 E1.1778
G1 X115.6 Y58.316 E1.2236
G1 X116.144 Y58.417 E1.2401
G1 Y51.07 E1.46
G1 X103.856 E1.8279
G1 Y87.016 E2.9039
G1 X102.643 Y87.865 E2.9482
G1 X102.576 Y87.921 E2.9508
G1 X101.19 Y89.307 E3.0095
G1 X100.04 Y90.95 E3.0695
G1 X99.193 Y92.767 E3.1295
G1 X98.674 Y94.703 E3.1895
G1 X98.5 Y96.7 E3.2495
G1 X98.674 Y98.697 E3.3095
G1 X99.193 Y100.633 E3.3695
G1 X100.04 Y102.45 E3.4296
G1 X101.19 Y104.093 E3.4896
G1 X101.33 Y104.233 E3.4955
G1 X104.897 Y121.365 E4.0194
G1 X107.272 Y130.106 E4.2905
G1 X108.95 Y133.995 E4.4173
G1 X110 Y134.823 E4.4573
G1 X111.05 Y133.995 E4.4973
G1 X112.728 Y130.106 E4.6241
G1 X115.102 Y121.368 E4.8951
G1 X118.67 Y104.233 E5.4191
G1 X118.81 Y104.093 E5.425
G1 X119.96 Y102.45 E5.485
G1 X120.807 Y100.633 E5.545
G1 X121.326 Y98.697 E5.605
G1 X121.5 Y96.7 E5.6651
G1 X121.326 Y94.703 E5.7251
G1 X120.807 Y92.767 E5.7851
G1 X119.96 Y90.95 E5.8451
G1 X118.81 Y89.307 E5.9051
G1 X117.393 Y87.89 E5.9651
G1 X116.144 Y87.016 E6.0107
G92 E0
; Repositioning
G1 X116.514 Y86.823 F4800
; Contour
G1 Y79.938 E0.2061 F1200
G1 X115.6 Y80.106 E0.2339
G1 X114.229 Y79.854 E0.2756
G1 X112.999 Y79.123 E0.3185
G1 X112.028 Y77.99 E0.3631
G1 X111.407 Y76.569 E0.4095
G1 X111.195 Y75 E0.4569
G1 X111.407 Y73.431 E0.5043
G1 X112.028 Y72.01 E0.5508
G1 X112.999 Y70.877 E0.5954
G1 X114.229 Y70.146 E0.6383
G1 X115.6 Y69.892 E0.68
G1 X116.514 Y70.062 E0.7078
G1 Y68.738 E0.7474
G1 X115.6 Y68.906 E0.7753
G1 X114.229 Y68.654 E0.817
G1 X112.999 Y67.923 E0.8598
G1 X112.028 Y66.79 E0.9045
G1 X111.407 Y65.369 E0.9509
G1 X111.195 Y63.8 E0.9983
G1 X111.407 Y62.231 E1.0457
G1 X112.028 Y60.81 E1.0921
G1 X112.999 Y59.677 E1.1367
G1 X114.229 Y58.946 E1.1796
G1 X115.6 Y58.692 E1.2213
G1 X116.514 Y58.862 E1.2491
G1 Y50.7 E1.4935
G1 X103.486 E1.8834
G1 Y86.823 E2.9647
G1 X102.417 Y87.571 E3.0038
G1 X102.326 Y87.648 E3.0074
G1 X100.906 Y89.068 E3.0675
G1 X99.718 Y90.764 E3.1295
G1 X98.844 Y92.639 E3.1914
G1 X98.308 Y94.638 E3.2533
G1 X98.128 Y96.7 E3.3153
G1 X98.308 Y98.762 E3.3772
G1 X98.844 Y100.761 E3.4392
G1 X99.718 Y102.636 E3.5011
G1 X100.906 Y104.332 E3.5631
G1 X100.991 Y104.417 E3.5667
G1 X104.537 Y121.452 E4.0876
G1 X106.922 Y130.229 E4.3598
G1 X108.647 Y134.228 E4.4902
G1 X110 Y135.294 E4.5417
G1 X111.353 Y134.228 E4.5933
G1 X113.078 Y130.229 E4.7237
G1 X115.462 Y121.455 E4.9958
G1 X119.01 Y104.416 E5.5168
G1 X119.094 Y104.332 E5.5204
G1 X120.282 Y102.636 E5.5824
G1 X121.156 Y100.761 E5.6443
G1 X121.692 Y98.762 E5.7062
G1 X121.872 Y96.7 E5.7682
G1 X121.692 Y94.638 E5.8302
G1 X121.156 Y92.639 E5.8921
G1 X120.282 Y90.764 E5.954
G1 X119.094 Y89.068 E6.016
G1 X117.632 Y87.606 E6.0779
G1 X116.514 Y86.823 E6.1188
G92 E0
; Repositioning
G1 X116.102 Y88.302 F4800
; Contour
G1 X113.208 Y86.827 E0.0972 F2400
G1 X110 Y86.319 E0.1945
G1 X106.792 Y86.827 E0.2917
G1 X103.895 Y88.306 E0.389
G1 X101.602 Y90.598 E0.4861
G1 X100.127 Y93.492 E0.5833
G1 X99.62 Y96.7 E0.6805
G1 X100.127 Y99.908 E0.7778
G1 X101.602 Y102.802 E0.875
G1 X103.898 Y105.098 E0.9722
G1 X106.792 Y106.573 E1.0694
G1 X110 Y107.08 E1.1666
G1 X113.208 Y106.573 E1.2639
G1 X116.102 Y105.098 E1.3611
G1 X118.398 Y102.802 E1.4583
G1 X119.873 Y99.908 E1.5555
G1 X120.381 Y96.7 E1.6527
G1 X119.873 Y93.492 E1.75
G1 X118.398 Y90.598 E1.8472
G1 X116.102 Y88.302 E1.9444
G92 E0
; Repositioning
G1 X115.881 Y88.605 F4800
; Contour
G1 X113.092 Y87.183 E0.0937 F1200
G1 X110 Y86.693 E0.1874
G1 X106.908 Y87.183 E0.2812
G1 X104.115 Y88.609 E0.375
G1 X101.905 Y90.819 E0.4686
G1 X100.483 Y93.608 E0.5623
G1 X99.995 Y96.7 E0.656
G1 X100.483 Y99.792 E0.7497
G1 X101.905 Y102.581 E0.8434
G1 X104.119 Y104.795 E0.9371
G1 X106.908 Y106.217 E1.0308
G1 X110 Y106.705 E1.1245
G1 X113.092 Y106.217 E1.2182
G1 X115.881 Y104.795 E1.312
G1 X118.095 Y102.581 E1.4057
G1 X119.517 Y99.792 E1.4994
G1 X120.007 Y96.7 E1.5931
G1 X119.517 Y93.608 E1.6868
G1 X118.095 Y90.819 E1.7805
G1 X115.881 Y88.605 E1.8742
G92 E0
; Repositioning
G1 X115.17 Y87.58 F4800
; InfillOverhang
G1 X114.363 Y86.774 E0.0344 F1200
G92 E0
; Repositioning
G1 X115.924 Y86.626 F4800
; InfillOverhang
G1 X114.363 Y85.066 E0.0665 F1200
G1 Y84.496 E0.0836
G1 X115.924 Y86.057 E0.1501
G1 Y85.488 E0.1673
G1 X114.363 Y83.927 E0.2337
G1 Y83.358 E0.2509
G1 X115.924 Y84.918 E0.3174
G1 Y84.349 E0.3345
G1 X114.363 Y82.789 E0.401
G1 Y82.219 E0.4181
G1 X115.924 Y83.78 E0.4846
G1 Y83.21 E0.5018
G1 X114.363 Y81.65 E0.5682
G1 Y81.081 E0.5854
G1 X115.924 Y82.641 E0.6519
G1 Y82.072 E0.669
G1 X114.363 Y80.511 E0.7355
G1 X115.021 Y80.599 E0.7555
G1 X115.924 Y81.502 E0.7939
G1 Y80.933 E0.8111
G1 E-3.1889 F2400
G92 E0
; Repositioning with retraction
G1 X115.514 Y86.719 F4800
G1 Y86.75
G1 X116.762 Y88.11
G1 X118.59 Y89.938
G1 X119.262 Y90.793
G1 X119.722 Y90.994
G1 E4 F2400
G92 E0
; InfillOverhang
G1 X114.363 Y85.635 E0.2283 F1200
G1 Y86.204 E0.2455
G1 X120.249 Y92.09 E0.4962
G1 X120.661 Y93.071 E0.5283
G1 X119.078 Y91.489 E0.5957
G1 X119.67 Y92.65 E0.635
G1 X120.87 Y93.849 E0.6861
G1 X121.078 Y94.627 E0.7103
G1 X120.124 Y93.673 E0.751
G1 X120.25 Y94.368 E0.7723
G1 X121.155 Y95.273 E0.8108
G1 X121.21 Y95.897 E0.8297
G1 X120.365 Y95.053 E0.8657
G1 X120.458 Y95.715 E0.8858
G1 X121.264 Y96.521 E0.9202
G1 X121.247 Y97.073 E0.9368
G1 X120.553 Y96.379 E0.9664
G1 X120.563 Y96.958 E0.9838
G1 X121.201 Y97.597 E1.011
G1 X121.156 Y98.12 E1.0268
G1 X120.485 Y97.45 E1.0554
G1 X120.427 Y97.96 E1.0709
G1 X121.11 Y98.644 E1.1
G1 X120.992 Y99.095 E1.1141
G1 X120.349 Y98.452 E1.1415
G1 X120.271 Y98.943 E1.1565
G1 X120.872 Y99.544 E1.1821
G1 X120.751 Y99.993 E1.1961
G1 X120.174 Y99.415 E1.2207
G1 X120.096 Y99.907 E1.2357
G1 X120.631 Y100.442 E1.2585
G1 X120.465 Y100.846 E1.2716
G1 X119.899 Y100.279 E1.2957
G1 X119.707 Y100.656 E1.3085
G1 X120.284 Y101.234 E1.3331
G1 X120.103 Y101.622 E1.346
G1 X119.515 Y101.034 E1.3711
G1 X119.322 Y101.411 E1.3838
G1 X119.922 Y102.01 E1.4094
G1 X119.834 Y102.491 E1.4241
G1 X119.13 Y101.788 E1.4541
G1 X118.938 Y102.165 E1.4668
G1 X119.599 Y102.826 E1.495
G1 X119.365 Y103.161 E1.5073
G1 X118.746 Y102.542 E1.5337
G1 X118.573 Y102.938 E1.5467
G1 X119.13 Y103.496 E1.5705
G1 X118.896 Y103.831 E1.5828
G1 X118.288 Y103.223 E1.6087
G1 X118.003 Y103.507 E1.6208
G1 X118.473 Y103.977 E1.6408
G1 X118.311 Y104.385 E1.654
G1 X117.719 Y103.792 E1.6793
G1 X117.434 Y104.077 E1.6914
G1 X118.213 Y104.856 E1.7246
G1 X118.115 Y105.327 E1.7391
G1 X117.149 Y104.361 E1.7803
G1 X116.865 Y104.646 E1.7924
G1 X118.017 Y105.798 E1.8415
G1 X117.919 Y106.269 E1.856
G1 X116.58 Y104.931 E1.913
G1 X116.3 Y105.219 E1.9252
G1 X117.821 Y106.741 E1.99
G1 X117.723 Y107.212 E2.0045
G1 X115.963 Y105.452 E2.0795
G1 X115.636 Y105.694 E2.0917
G1 X117.625 Y107.683 E2.1765
G1 X117.527 Y108.154 E2.191
G1 X115.259 Y105.887 E2.2876
G1 X115.086 Y106.283 E2.3006
G1 X117.429 Y108.625 E2.4004
G1 X117.33 Y109.097 E2.4149
G1 X114.965 Y106.731 E2.5157
G1 X114.843 Y107.179 E2.5296
G1 X117.232 Y109.568 E2.6314
G1 X117.134 Y110.039 E2.6459
G1 X114.721 Y107.626 E2.7487
G1 X114.587 Y108.061 E2.7624
G1 X117.036 Y110.51 E2.8668
G1 X116.938 Y110.981 E2.8813
G1 X114.415 Y108.458 E2.9888
G1 X114.244 Y108.856 E3.0018
G1 X116.84 Y111.453 E3.1124
G1 X116.742 Y111.924 E3.1269
G1 X114.072 Y109.254 E3.2407
G1 X113.9 Y109.652 E3.2537
G1 X116.644 Y112.395 E3.3706
G1 X116.546 Y112.866 E3.3851
G1 X113.729 Y110.049 E3.5051
G1 X113.557 Y110.447 E3.5182
G1 X116.448 Y113.337 E3.6413
G1 X116.552 Y114.011 E3.6618
G1 X113.386 Y110.845 E3.7968
G1 X113.214 Y111.242 E3.8098
G1 X116.454 Y114.483 E3.9478
G1 X116.356 Y114.954 E3.9623
G1 X113.043 Y111.64 E4.1035
G1 X112.871 Y112.038 E4.1166
G1 X116.258 Y115.425 E4.2609
G1 X116.16 Y115.896 E4.2754
G1 X112.699 Y112.436 E4.4228
G1 X112.528 Y112.833 E4.4358
G1 X116.062 Y116.367 E4.5864
G1 X115.964 Y116.839 E4.6009
G1 X112.356 Y113.231 E4.7546
G1 X112.185 Y113.629 E4.7676
G1 X115.866 Y117.31 E4.9244
G1 X115.767 Y117.781 E4.9389
G1 X112.013 Y114.027 E5.0989
G1 X111.743 Y114.326 E5.111
G1 X115.669 Y118.252 E5.2783
G1 X115.571 Y118.723 E5.2928
G1 X111.425 Y114.577 E5.4695
G1 X111.106 Y114.828 E5.4817
G1 X115.473 Y119.194 E5.6677
G1 X115.375 Y119.666 E5.6822
G1 X110.788 Y115.079 E5.8777
G1 X110.47 Y115.329 E5.8899
G1 X115.277 Y120.137 E6.0947
G1 X115.179 Y120.608 E6.1092
G1 X110.151 Y115.58 E6.3234
G92 E0
; Repositioning
G1 X108.589 Y114.587 F4800
; InfillOverhang
G1 X115.081 Y121.079 E0.2766 F1200
G1 X114.973 Y121.54 E0.2909
G1 X102.694 Y109.262 E0.814
G1 X102.844 Y109.981 E0.8361
G1 X114.851 Y121.988 E1.3476
G1 X114.729 Y122.436 E1.3616
G1 X102.993 Y110.7 E1.8616
G1 X103.143 Y111.419 E1.8837
G1 X114.608 Y122.883 E2.3721
G1 X114.486 Y123.331 E2.3861
G1 X103.293 Y112.138 E2.863
G1 X103.443 Y112.857 E2.8851
G1 X114.364 Y123.779 E3.3504
G1 X114.243 Y124.226 E3.3644
G1 X103.308 Y113.292 E3.8302
G1 X103.458 Y114.011 E3.8524
G1 X114.121 Y124.674 E4.3066
G1 X113.999 Y125.122 E4.3206
G1 X103.714 Y114.836 E4.7588
G1 X103.863 Y115.555 E4.7809
G1 X113.878 Y125.569 E5.2076
G1 X113.756 Y126.017 E5.2216
G1 X104.013 Y116.274 E5.6367
G1 X104.163 Y116.993 E5.6588
G1 X113.634 Y126.464 E6.0623
G1 X113.513 Y126.912 E6.0763
G1 X104.312 Y117.712 E6.4683
G1 X104.462 Y118.431 E6.4904
G1 X113.391 Y127.36 E6.8708
G1 X113.27 Y127.807 E6.8848
G1 X104.612 Y119.15 E7.2536
G1 X104.761 Y119.869 E7.2757
G1 X113.148 Y128.255 E7.633
G1 X113.026 Y128.703 E7.647
G1 X104.911 Y120.587 E7.9927
G1 X105.061 Y121.306 E8.0149
G1 X112.905 Y129.15 E8.349
G1 X112.783 Y129.598 E8.363
G1 X105.272 Y122.087 E8.683
G1 X105.484 Y122.868 E8.7074
G1 X112.661 Y130.046 E9.0132
G1 X112.424 Y130.377 E9.0255
G1 X105.696 Y123.65 E9.3121
G1 X105.909 Y124.432 E9.3365
G1 X112.252 Y130.775 E9.6067
G1 X112.08 Y131.173 E9.6198
G1 X106.121 Y125.213 E9.8737
G1 X106.333 Y125.995 E9.8981
G1 X111.909 Y131.57 E10.1356
G1 X111.737 Y131.968 E10.1487
G1 X106.546 Y126.777 E10.3698
G1 X106.758 Y127.558 E10.3942
G1 X111.566 Y132.366 E10.599
G1 X111.394 Y132.763 E10.6121
G1 X106.971 Y128.34 E10.8005
G1 X107.183 Y129.122 E10.8249
G1 X111.223 Y133.161 E10.997
G1 X111.051 Y133.559 E11.0101
G1 X107.395 Y129.903 E11.1658
G1 X107.786 Y130.863 E11.1971
G1 X110.854 Y133.931 E11.3277
G1 X110.535 Y134.182 E11.34
G1 X108.218 Y131.865 E11.4387
G1 X108.65 Y132.866 E11.4715
G1 X110.217 Y134.433 E11.5383
G1 X109.113 Y133.898 E11.5752
G1 E7.5752 F2400
G92 E0
; Repositioning with retraction
G1 X109.399 Y133.577 F4800
G1 X107.956 Y113.954
G1 E4 F2400
G92 E0
; InfillOverhang
G1 X102.544 Y108.543 E0.2305 F1200
G1 X102.395 Y107.824 E0.2527
G1 X107.524 Y112.953 E0.4712
G1 X107.092 Y111.952 E0.504
G1 X102.245 Y107.105 E0.7105
G1 X102.095 Y106.386 E0.7326
G1 X106.66 Y110.951 E0.9271
G1 X106.228 Y109.949 E0.96
G1 X101.946 Y105.667 E1.1424
G1 X101.796 Y104.948 E1.1645
G1 X105.796 Y108.948 E1.3349
G1 X105.366 Y107.949 E1.3677
G1 X101.646 Y104.229 E1.5262
G92 E0
; Repositioning
G1 X101.359 Y102.803 F4800
; InfillOverhang
G1 X99.651 Y101.095 E0.0728 F1200
G1 X99.297 Y100.171 E0.1026
G1 X100.848 Y101.723 E0.1686
G1 X100.256 Y100.562 E0.2079
G1 X99.088 Y99.394 E0.2577
G1 X98.888 Y98.624 E0.2816
G1 X99.854 Y99.59 E0.3228
G1 X99.709 Y98.876 E0.3447
G1 X98.834 Y98.001 E0.382
G1 X98.779 Y97.377 E0.4009
G1 X99.602 Y98.2 E0.4359
G1 X99.531 Y97.56 E0.4553
G1 X98.725 Y96.753 E0.4897
G1 X98.762 Y96.221 E0.5058
G1 X99.427 Y96.886 E0.5341
G1 X99.454 Y96.344 E0.5504
G1 X98.808 Y95.697 E0.578
G1 X98.853 Y95.174 E0.5938
G1 X99.53 Y95.851 E0.6226
G1 X99.581 Y95.332 E0.6383
G1 X98.912 Y94.663 E0.6668
G1 X99.032 Y94.214 E0.6808
G1 X99.659 Y94.841 E0.7075
G1 X99.751 Y94.364 E0.7222
G1 X99.153 Y93.765 E0.7477
G1 X99.273 Y93.316 E0.7617
G1 X99.842 Y93.886 E0.7859
G1 X99.93 Y93.404 E0.8006
G1 X99.393 Y92.867 E0.8235
G1 X99.571 Y92.476 E0.8365
G1 X100.125 Y93.03 E0.8601
G1 X100.317 Y92.653 E0.8728
G1 X99.752 Y92.088 E0.8969
G1 X99.933 Y91.699 E0.9098
G1 X100.509 Y92.275 E0.9343
G1 X100.702 Y91.898 E0.9471
G1 X100.114 Y91.311 E0.9721
G1 X100.314 Y90.942 E0.9848
G1 X100.894 Y91.521 E1.0094
G1 X101.086 Y91.144 E1.0222
G1 X100.549 Y90.607 E1.0451
G1 X100.783 Y90.272 E1.0574
G1 X101.278 Y90.767 E1.0785
G1 X101.485 Y90.405 E1.0911
G1 X101.018 Y89.937 E1.111
G1 X101.252 Y89.602 E1.1233
G1 X101.769 Y90.12 E1.1453
G1 X102.046 Y89.827 E1.1575
G1 X101.514 Y89.295 E1.1801
G1 X101.798 Y89.01 E1.1923
G1 X102.33 Y89.542 E1.2149
G1 X102.615 Y89.257 E1.2271
G1 X102.083 Y88.725 E1.2497
G1 X102.368 Y88.441 E1.2619
G1 X102.9 Y88.973 E1.2845
G1 X103.184 Y88.688 E1.2967
G1 X102.652 Y88.156 E1.3193
G1 X102.97 Y87.905 E1.3315
G1 X103.477 Y88.412 E1.3531
G1 X103.762 Y88.127 E1.3653
G1 X103.305 Y87.67 E1.3848
G1 X103.64 Y87.436 E1.3971
G1 X104.138 Y87.934 E1.4183
G1 X104.515 Y87.742 E1.4311
G1 X103.975 Y87.201 E1.4541
G1 X104.076 Y86.734 E1.4685
G1 X104.892 Y87.55 E1.5033
G1 X105.269 Y87.357 E1.516
G1 X104.076 Y86.164 E1.5668
G1 Y85.595 E1.584
G1 X105.637 Y87.155 E1.6505
G1 Y86.586 E1.6676
G1 X104.076 Y85.026 E1.7341
G1 Y84.457 E1.7512
G1 X105.637 Y86.017 E1.8177
G1 Y85.448 E1.8349
G1 X104.076 Y83.887 E1.9014
G1 Y83.318 E1.9185
G1 X105.637 Y84.878 E1.985
G1 Y84.309 E2.0021
G1 X104.076 Y82.749 E2.0686
G1 Y82.179 E2.0858
G1 X105.637 Y83.74 E2.1522
G1 Y83.17 E2.1694
G1 X104.076 Y81.61 E2.2359
G1 Y81.041 E2.253
G1 X105.637 Y82.601 E2.3195
G1 Y82.032 E2.3366
G1 X104.076 Y80.471 E2.4031
G1 Y79.902 E2.4203
G1 X105.637 Y81.463 E2.4868
G1 Y80.893 E2.5039
G1 X104.076 Y79.333 E2.5704
G1 Y78.764 E2.5875
G1 X105.637 Y80.324 E2.654
G1 Y79.755 E2.6712
G1 X104.076 Y78.194 E2.7376
G1 Y77.625 E2.7548
G1 X105.637 Y79.185 E2.8213
G1 Y78.616 E2.8384
G1 X104.076 Y77.056 E2.9049
G1 Y76.486 E2.922
G1 X105.637 Y78.047 E2.9885
G1 Y77.478 E3.0057
G1 X104.076 Y75.917 E3.0721
G1 Y75.348 E3.0893
G1 X105.637 Y76.908 E3.1558
G1 Y76.339 E3.1729
G1 X104.076 Y74.779 E3.2394
G1 Y74.209 E3.2566
G1 X105.637 Y75.77 E3.323
G1 Y75.2 E3.3402
G1 X104.076 Y73.64 E3.4067
G1 Y73.071 E3.4238
G1 X105.637 Y74.631 E3.4903
G1 Y74.062 E3.5074
G1 X104.076 Y72.501 E3.5739
G1 Y71.932 E3.5911
G1 X105.637 Y73.492 E3.6575
G1 Y72.923 E3.6747
G1 X104.076 Y71.363 E3.7412
G1 Y70.793 E3.7583
G1 X105.637 Y72.354 E3.8248
G1 Y71.785 E3.8419
G1 X104.076 Y70.224 E3.9084
G1 Y69.655 E3.9256
G1 X105.637 Y71.215 E3.9921
G1 Y70.646 E4.0092
G1 X104.076 Y69.086 E4.0757
G1 Y68.516 E4.0928
G1 X105.637 Y70.077 E4.1593
G1 Y69.507 E4.1765
G1 X104.076 Y67.947 E4.2429
G1 Y67.378 E4.2601
G1 X105.637 Y68.938 E4.3266
G1 Y68.369 E4.3437
G1 X104.076 Y66.808 E4.4102
G1 Y66.239 E4.4273
G1 X105.637 Y67.8 E4.4938
G1 Y67.23 E4.511
G1 X104.076 Y65.67 E4.5774
G1 Y65.101 E4.5946
G1 X105.637 Y66.661 E4.6611
G1 Y66.092 E4.6782
G1 X104.076 Y64.531 E4.7447
G1 Y63.962 E4.7619
G1 X105.637 Y65.522 E4.8283
G1 Y64.953 E4.8455
G1 X104.076 Y63.393 E4.912
G1 Y62.823 E4.9291
G1 X105.637 Y64.384 E4.9956
G1 Y63.815 E5.0127
G1 X104.076 Y62.254 E5.0792
G1 Y61.685 E5.0964
G1 X105.637 Y63.245 E5.1628
G1 Y62.676 E5.18
G1 X104.076 Y61.116 E5.2465
G1 Y60.546 E5.2636
G1 X105.637 Y62.107 E5.3301
G1 Y61.537 E5.3472
G1 X104.076 Y59.977 E5.4137
G1 Y59.408 E5.4309
G1 X105.637 Y60.968 E5.4974
G1 Y60.399 E5.5145
G1 X104.076 Y58.838 E5.581
G1 Y58.269 E5.5981
G1 X105.637 Y59.829 E5.6646
G1 Y59.26 E5.6818
G1 X104.076 Y57.7 E5.7482
G1 Y57.13 E5.7654
G1 X105.637 Y58.691 E5.8319
G1 Y58.122 E5.849
G1 X104.076 Y56.561 E5.9155
G1 Y55.992 E5.9326
G1 X105.637 Y57.552 E5.9991
G1 Y56.983 E6.0163
G1 X104.076 Y55.423 E6.0827
G1 Y54.853 E6.0999
G1 X105.637 Y56.414 E6.1664
G1 Y55.844 E6.1835
G1 X104.076 Y54.284 E6.25
G1 Y53.715 E6.2672
G1 X105.637 Y55.275 E6.3336
G1 Y54.706 E6.3508
G1 X104.076 Y53.145 E6.4173
G1 Y52.576 E6.4344
G1 X105.637 Y54.137 E6.5009
G1 Y53.567 E6.518
G1 X104.076 Y52.007 E6.5845
G1 Y51.438 E6.6017
G1 X105.637 Y52.998 E6.6681
G1 Y52.429 E6.6853
G1 X104.498 Y51.29 E6.7338
G1 X105.067 E6.751
G1 X105.637 Y51.859 E6.7752
G1 Y51.29 E6.7924
G1 E2.7924 F2400
G92 E0
; Repositioning with retraction
G1 X115.804 Y51.41 F4800
G1 E4 F2400
G92 E0
; Infill
G1 X115.227 E0.0176 F2400
G1 X115.804 Y51.987 E0.0425
G1 Y52.564 E0.0601
G1 X114.65 Y51.41 E0.1099
G1 X114.483 Y51.82 E0.1235
G1 X115.804 Y53.141 E0.1805
G1 Y53.718 E0.1981
G1 X114.483 Y52.397 E0.2551
G1 Y52.974 E0.2727
G1 X115.804 Y54.294 E0.3297
G1 Y54.871 E0.3473
G1 X114.483 Y53.551 E0.4043
G1 Y54.128 E0.4219
G1 X115.804 Y55.448 E0.4789
G1 Y56.025 E0.4965
G1 X114.483 Y54.705 E0.5535
G1 Y55.282 E0.5711
G1 X115.804 Y56.602 E0.6281
G1 Y57.179 E0.6457
G1 X114.483 Y55.858 E0.7027
G1 Y56.435 E0.7203
G1 X115.804 Y57.756 E0.7773
G1 X115.466 Y57.995 E0.79
G1 X114.483 Y57.012 E0.8324
G1 Y57.589 E0.85
G1 X114.98 Y58.085 E0.8714
G1 X114.488 Y58.171 E0.8867
G1 E-3.1133
G92 E0
; Repositioning with retraction
G1 X113.559 Y58.712 F4800
G1 X110.91 Y61.305
G1 X110.714 Y75.987
G1 X110.844 Y77.445
G1 X111.347 Y78.727
G1 X115.514 Y86.75
G1 X116.762 Y88.11
G1 X118.59 Y89.938
G1 X119.124 Y90.808
G1 X120.334 Y93.121
G1 X120.938 Y96.7
G1 X120.334 Y100.279
G1 X119.262 Y102.607
G1 X118.643 Y104.147
G1 E4 F2400
G92 E0
; InfillOverhang
G1 X118.445 Y104.518 E0.0127 F1200
G1 X118.347 Y104.989 E0.0272
G1 X118.248 Y105.46 E0.0417
G1 X118.15 Y105.931 E0.0562
G1 X118.052 Y106.402 E0.0707
G1 X117.954 Y106.873 E0.0852
G1 X117.855 Y107.344 E0.0996
G1 X117.757 Y107.815 E0.1141
G1 X117.659 Y108.286 E0.1286
G1 X117.631 Y108.828 E0.145
G1 X117.391 Y109.158 E0.1573
G1 X117.435 Y109.771 E0.1758
G1 X117.195 Y110.099 E0.188
G1 X117.239 Y110.713 E0.2066
G1 X116.998 Y111.041 E0.2188
G1 X117.043 Y111.655 E0.2374
G1 X116.801 Y111.983 E0.2497
G1 X116.847 Y112.598 E0.2682
G1 X116.581 Y112.901 E0.2804
G1 X116.65 Y113.54 E0.2998
G1 E-3.7002 F2400
G92 E0
; Repositioning with retraction
G1 X103.395 Y112.809 F4800
G1 E4 F2400
G92 E0
; InfillOverhang
G1 X103.009 Y111.854 E0.031 F1200
G1 X103.066 Y111.342 E0.0466
G1 X102.71 Y110.416 E0.0764
G1 X102.767 Y109.904 E0.092
G1 X102.41 Y108.978 E0.1218
G1 X102.467 Y108.466 E0.1374
G1 X102.111 Y107.54 E0.1673
G1 X102.168 Y107.028 E0.1828
G1 X101.811 Y106.102 E0.2127
G1 X101.868 Y105.59 E0.2282
G1 X101.512 Y104.664 E0.2581
G1 X101.569 Y104.152 E0.2736
G1 X101.285 Y103.867 E0.2857
G1 X100.148 Y102.162 E0.3475
G1 X105.154 Y107.167 E0.5607
G1 X104.941 Y106.386 E0.5851
G1 X103.976 Y105.42 E0.6262
G92 E0
; Repositioning
G1 X104.245 Y105.831 F4800
G1 X106.77 Y107.207
G1 X107.873 Y107.088
; Infill
G1 X105.953 Y109.008 E0.0813 F2400
G1 X105.482 Y107.916 E0.1169
G1 X104.968 Y106.025 E0.1755
G1 X106.686 Y106.9 E0.2333
G1 X106.941 Y106.941 E0.241
G1 X112.529 Y112.529 E0.4776
G1 X114.233 Y108.577 E0.6064
G1 X112.66 Y107.004 E0.673
G1 X113.314 Y106.9 E0.6928
G1 X114.136 Y106.482 E0.7204
G1 X107.657 Y112.96 E0.9946
G1 X107.926 Y113.583 E1.015
G1 X109.48 Y115.137 E1.0807
G1 E-2.9193
G92 E0
; Repositioning with retraction
G1 X119.124 Y102.592 F4800
G1 X120.334 Y100.279
G1 X120.938 Y96.7
G1 X120.334 Y93.121
G1 X119.792 Y91.252
G1 E4 F2400
G92 E0
; InfillOverhang
G1 X118.601 Y89.483 E0.0654 F1200
G1 X117.217 Y88.099 E0.1253
G92 E0
; Repositioning
G1 X116.762 Y88.11 F4800
G1 X115.514 Y86.75
G1 X112.613 Y79.72
; Infill
G1 X105.657 Y86.676 E0.2945 F2400
G1 Y83.029 E0.4037
G1 X108.793 Y86.166 E0.5365
G1 X110 Y85.974 E0.573
G1 X111.74 Y86.25 E0.6258
G1 X114.343 Y83.646 E0.736
G1 Y86.059 E0.8082
G1 X105.657 Y77.372 E1.1759
G1 Y81.02 E1.2851
G1 X110.621 Y76.055 E1.4953
G1 X110.717 Y76.763 E1.5167
G1 X110.727 Y76.786 E1.5174
G1 X105.657 Y71.715 E1.7321
G1 Y75.363 E1.8412
G1 X112.542 Y68.477 E2.1327
G1 X113.976 Y69.329 E2.1826
G1 X114.361 Y69.4 E2.1944
G1 X113.976 Y69.471 E2.2061
G1 X112.535 Y70.326 E2.2562
G1 X111.42 Y71.628 E2.3076
G1 X111.361 Y71.763 E2.312
G1 X105.657 Y66.059 E2.5535
G1 Y69.706 E2.6626
G1 X110.608 Y64.755 E2.8722
G1 X110.701 Y65.446 E2.8931
G1 X105.657 Y60.402 E3.1067
G1 Y64.049 E3.2158
G1 X114.343 Y55.362 E3.5836
G1 Y57.775 E3.6558
G1 X107.979 Y51.41 E3.9253
G1 X106.982 E3.9551
G1 X105.657 Y52.735 E4.0112
G1 Y54.745 E4.0713
G1 X111.396 Y60.484 E4.3143
G92 E0
; Repositioning
G1 X105.657 Y58.392 F4800
; Infill
G1 X112.639 Y51.41 E0.2956 F2400
G1 X113.635 E0.3254
G1 X114.343 Y52.118 E0.3554
G1 E-3.6446
G92 E0
     ; New Layer
; layer 5, Z = 1.239
; layer time : 00:01:26
; Repositioning
G0 Z1.239 F1000.02
; Repositioning with retraction
G1 X103.698 Y86.35 F4800
G1 E4 F2400
G92 E0
; Contour
G1 X102.197 Y87.401 E0.0548 F1200
G1 X100.701 Y88.897 E0.1182
G1 X99.487 Y90.631 E0.1815
G1 X98.593 Y92.548 E0.2449
G1 X98.045 Y94.592 E0.3082
G1 X97.86 Y96.7 E0.3716
G1 X98.045 Y98.808 E0.4349
G1 X98.593 Y100.852 E0.4982
G1 X99.487 Y102.769 E0.5616
G1 X100.701 Y104.503 E0.6249
G1 X100.891 Y104.693 E0.633
G1 X102.606 Y114.286 E0.9247
G1 X105.964 Y130.414 E1.4178
G1 X107.888 Y137.497 E1.6375
G1 X109.236 Y140.62 E1.7393
G1 X110 Y141.223 E1.7685
G1 X110.764 Y140.62 E1.7976
G1 X112.112 Y137.497 E1.8994
G1 X114.036 Y130.416 E2.1191
G1 X117.388 Y114.313 E2.6114
G1 X119.109 Y104.693 E2.904
G1 X119.299 Y104.503 E2.912
G1 X120.513 Y102.769 E2.9754
G1 X121.407 Y100.852 E3.0387
G1 X121.955 Y98.808 E3.102
G1 X122.14 Y96.7 E3.1654
G1 X121.955 Y94.592 E3.2287
G1 X121.407 Y92.548 E3.2921
G1 X120.513 Y90.631 E3.3554
G1 X119.299 Y88.897 E3.4188
G1 X117.803 Y87.401 E3.4821
G1 X116.302 Y86.35 E3.5369
G1 Y80.353 E3.7164
G1 X115.6 Y80.482 E3.7378
G1 X114.097 Y80.206 E3.7836
G1 X112.757 Y79.41 E3.8302
G1 X111.711 Y78.189 E3.8783
G1 X111.047 Y76.67 E3.928
G1 X110.822 Y75 E3.9784
G1 X111.047 Y73.33 E4.0288
G1 X111.711 Y71.811 E4.0785
G1 X112.757 Y70.59 E4.1266
G1 X114.097 Y69.795 E4.1732
G1 X115.6 Y69.516 E4.219
G1 X116.302 Y69.646 E4.2404
G1 Y69.153 E4.2551
G1 X115.6 Y69.282 E4.2765
G1 X114.097 Y69.006 E4.3222
G1 X112.757 Y68.21 E4.3689
G1 X111.711 Y66.989 E4.417
G1 X111.047 Y65.47 E4.4666
G1 X110.822 Y63.8 E4.5171
G1 X111.047 Y62.13 E4.5675
G1 X111.711 Y60.611 E4.6172
G1 X112.757 Y59.39 E4.6653
G1 X114.097 Y58.595 E4.7119
G1 X115.6 Y58.316 E4.7577
G1 X116.302 Y58.446 E4.7791
G1 Y51.07 E4.9999
G1 X103.698 E5.3772
G1 Y86.35 E6.4332
G92 E0
; Repositioning
G1 X103.328 Y86.157 F4800
; Contour
G1 X101.958 Y87.116 E0.0501 F1200
G1 X100.416 Y88.658 E0.1153
G1 X99.165 Y90.445 E0.1806
G1 X98.244 Y92.421 E0.2459
G1 X97.679 Y94.527 E0.3112
G1 X97.489 Y96.7 E0.3764
G1 X97.679 Y98.873 E0.4417
G1 X98.244 Y100.979 E0.507
G1 X99.165 Y102.955 E0.5723
G1 X100.416 Y104.742 E0.6376
G1 X100.547 Y104.872 E0.6431
G1 X102.243 Y114.356 E0.9315
G1 X105.604 Y130.5 E1.4251
G1 X107.538 Y137.619 E1.6459
G1 X108.933 Y140.853 E1.7513
G1 X110 Y141.694 E1.792
G1 X111.067 Y140.853 E1.8327
G1 X112.462 Y137.619 E1.9381
G1 X114.396 Y130.503 E2.1589
G1 X117.752 Y114.383 E2.6517
G1 X119.453 Y104.872 E2.9409
G1 X119.584 Y104.742 E2.9465
G1 X120.835 Y102.955 E3.0118
G1 X121.756 Y100.979 E3.077
G1 X122.321 Y98.873 E3.1423
G1 X122.511 Y96.7 E3.2076
G1 X122.321 Y94.527 E3.2729
G1 X121.756 Y92.421 E3.3382
G1 X120.835 Y90.445 E3.4034
G1 X119.584 Y88.658 E3.4687
G1 X118.042 Y87.116 E3.534
G1 X116.672 Y86.157 E3.584
G1 Y79.909 E3.7711
G1 X115.6 Y80.106 E3.8037
G1 X114.229 Y79.854 E3.8454
G1 X112.999 Y79.123 E3.8883
G1 X112.028 Y77.99 E3.9329
G1 X111.407 Y76.569 E3.9794
G1 X111.195 Y75 E4.0268
G1 X111.407 Y73.431 E4.0742
G1 X112.028 Y72.01 E4.1206
G1 X112.999 Y70.877 E4.1652
G1 X114.229 Y70.146 E4.2081
G1 X115.6 Y69.892 E4.2498
G1 X116.672 Y70.091 E4.2824
G1 Y68.709 E4.3238
G1 X115.6 Y68.906 E4.3565
G1 X114.229 Y68.654 E4.3982
G1 X112.999 Y67.923 E4.441
G1 X112.028 Y66.79 E4.4857
G1 X111.407 Y65.369 E4.5321
G1 X111.195 Y63.8 E4.5795
G1 X111.407 Y62.231 E4.6269
G1 X112.028 Y60.81 E4.6733
G1 X112.999 Y59.677 E4.718
G1 X114.229 Y58.946 E4.7608
G1 X115.6 Y58.692 E4.8025
G1 X116.672 Y58.891 E4.8352
G1 Y50.7 E5.0804
G1 X103.328 E5.4798
G1 Y86.157 E6.5412
G92 E0
; Repositioning
G1 X103.895 Y88.305 F4800
; Contour
G1 X101.602 Y90.598 E0.0971 F2400
G1 X100.127 Y93.492 E0.1943
G1 X99.62 Y96.7 E0.2915
G1 X100.127 Y99.908 E0.3887
G1 X101.602 Y102.802 E0.486
G1 X103.898 Y105.098 E0.5832
G1 X106.792 Y106.573 E0.6804
G1 X110 Y107.08 E0.7776
G1 X113.208 Y106.573 E0.8748
G1 X116.102 Y105.098 E0.9721
G1 X118.398 Y102.802 E1.0693
G1 X119.873 Y99.908 E1.1665
G1 X120.381 Y96.7 E1.2637
G1 X119.873 Y93.492 E1.3609
G1 X118.398 Y90.598 E1.4582
G1 X116.102 Y88.302 E1.5554
G1 X113.208 Y86.827 E1.6526
G1 X110 Y86.319 E1.7498
G1 X106.792 Y86.827 E1.847
G1 X103.895 Y88.305 E1.9444
G92 E0
; Repositioning
G1 X104.115 Y88.608 F4800
; Contour
G1 X101.905 Y90.819 E0.0936 F1200
G1 X100.483 Y93.608 E0.1873
G1 X99.995 Y96.7 E0.281
G1 X100.483 Y99.792 E0.3747
G1 X101.905 Y102.581 E0.4684
G1 X104.119 Y104.795 E0.5621
G1 X106.908 Y106.217 E0.6558
G1 X110 Y106.705 E0.7495
G1 X113.092 Y106.217 E0.8433
G1 X115.881 Y104.795 E0.937
G1 X118.095 Y102.581 E1.0307
G1 X119.517 Y99.792 E1.1244
G1 X120.007 Y96.7 E1.2181
G1 X119.517 Y93.608 E1.3118
G1 X118.095 Y90.819 E1.4055
G1 X115.881 Y88.605 E1.4992
G1 X113.092 Y87.183 E1.5929
G1 X110 Y86.693 E1.6867
G1 X106.908 Y87.183 E1.7804
G1 X104.115 Y88.608 E1.8742
G92 E0
; Repositioning
G1 X104.348 Y87.794 F4800
; InfillOverhang
G1 X104.759 Y87.383 E0.0174 F1200
G1 Y86.816 E0.0345
G1 X98.787 Y92.787 E0.2879
G1 X99.226 Y91.781 E0.3208
G1 X104.759 Y86.249 E0.5556
G1 Y85.681 E0.5726
G1 X99.751 Y90.689 E0.7852
G92 E0
; Repositioning
G1 X101.155 Y90.986 F4800
; InfillOverhang
G1 X98.58 Y93.562 E0.1093 F1200
G1 X98.372 Y94.337 E0.1334
G1 X100.566 Y92.143 E0.2265
G1 X99.976 Y93.299 E0.2655
G1 X98.258 Y95.017 E0.3384
G1 X98.204 Y95.639 E0.3571
G1 X99.785 Y94.058 E0.4241
G1 X99.664 Y94.746 E0.4451
G1 X98.15 Y96.26 E0.5094
G1 X98.125 Y96.852 E0.5271
G1 X99.557 Y95.42 E0.5879
G1 X99.465 Y96.079 E0.6079
G1 X98.17 Y97.374 E0.6629
G1 X98.216 Y97.895 E0.6786
G1 X99.373 Y96.738 E0.7277
G1 X99.45 Y97.228 E0.7426
G1 X98.261 Y98.417 E0.793
G1 X98.332 Y98.914 E0.8081
G1 X99.517 Y97.728 E0.8584
G1 X99.595 Y98.218 E0.8733
G1 X98.452 Y99.361 E0.9218
G1 X98.572 Y99.808 E0.9357
G1 X99.672 Y98.707 E0.9824
G1 X99.76 Y99.187 E0.997
G1 X98.691 Y100.255 E1.0424
G1 X98.811 Y100.702 E1.0563
G1 X99.837 Y99.676 E1.0998
G1 X100 Y100.081 E1.1129
G1 X98.983 Y101.098 E1.156
G1 X99.163 Y101.485 E1.1688
G1 X100.191 Y100.457 E1.2125
G1 X100.383 Y100.832 E1.2251
G1 X99.344 Y101.871 E1.2692
G1 X99.524 Y102.258 E1.282
G1 X100.574 Y101.208 E1.3266
G1 X100.766 Y101.584 E1.3392
G1 X99.705 Y102.645 E1.3843
G1 X99.938 Y102.978 E1.3965
G1 X100.957 Y101.959 E1.4397
G1 X101.149 Y102.335 E1.4524
G1 X100.172 Y103.312 E1.4939
G1 X100.405 Y103.645 E1.5061
G1 X101.34 Y102.711 E1.5458
G1 X101.532 Y103.085 E1.5584
G1 X100.639 Y103.979 E1.5963
G1 X100.873 Y104.312 E1.6085
G1 X101.816 Y103.369 E1.6486
G1 X102.1 Y103.653 E1.6606
G1 X101.132 Y104.62 E1.7017
G1 X101.218 Y105.102 E1.7164
G1 X102.383 Y103.936 E1.7658
G1 X102.667 Y104.22 E1.7778
G1 X101.304 Y105.583 E1.8357
G1 X101.39 Y106.064 E1.8504
G1 X102.95 Y104.503 E1.9166
G1 X103.197 Y104.823 E1.9287
G1 X101.476 Y106.545 E2.0018
G1 X101.562 Y107.026 E2.0164
G1 X103.318 Y105.269 E2.091
G1 X103.44 Y105.715 E2.1049
G1 X101.648 Y107.507 E2.1809
G1 X101.734 Y107.988 E2.1956
G1 X103.561 Y106.161 E2.2731
G1 X103.682 Y106.607 E2.287
G1 X101.82 Y108.469 E2.366
G1 X101.906 Y108.95 E2.3807
G1 X103.803 Y107.053 E2.4612
G1 X103.924 Y107.499 E2.4751
G1 X101.992 Y109.431 E2.5571
G1 X102.078 Y109.912 E2.5718
G1 X104.046 Y107.945 E2.6553
G1 X104.167 Y108.391 E2.6691
G1 X102.164 Y110.393 E2.7541
G1 X102.25 Y110.875 E2.7688
G1 X104.288 Y108.837 E2.8553
G1 X104.409 Y109.283 E2.8691
G1 X102.336 Y111.356 E2.9571
G1 X102.422 Y111.837 E2.9718
G1 X104.53 Y109.729 E3.0612
G1 X104.651 Y110.175 E3.0751
G1 X102.508 Y112.318 E3.1661
G1 X102.594 Y112.799 E3.1807
G1 X104.773 Y110.621 E3.2732
G1 X104.894 Y111.066 E3.2871
G1 X102.68 Y113.28 E3.381
G1 X102.766 Y113.761 E3.3957
G1 X105.015 Y111.512 E3.4911
G1 X105.136 Y111.958 E3.505
G1 X102.852 Y114.242 E3.6019
G1 X102.95 Y114.711 E3.6163
G1 X105.257 Y112.404 E3.7142
G1 X105.378 Y112.85 E3.7281
G1 X103.048 Y115.181 E3.827
G1 X103.146 Y115.65 E3.8414
G1 X105.5 Y113.296 E3.9413
G1 X105.621 Y113.742 E3.9551
G1 X103.243 Y116.12 E4.056
G1 X103.341 Y116.589 E4.0704
G1 X105.742 Y114.188 E4.1723
G1 X105.863 Y114.634 E4.1862
G1 X103.439 Y117.058 E4.2891
G1 X103.536 Y117.528 E4.3035
G1 X105.984 Y115.08 E4.4073
G1 X106.128 Y115.503 E4.4208
G1 X103.634 Y117.997 E4.5266
G1 X103.732 Y118.467 E4.541
G1 X106.299 Y115.899 E4.6499
G1 X106.47 Y116.296 E4.6629
G1 X103.83 Y118.936 E4.7749
G1 X103.927 Y119.405 E4.7893
G1 X106.641 Y116.692 E4.9045
G1 X106.812 Y117.088 E4.9174
G1 X104.025 Y119.875 E5.0357
G1 X104.123 Y120.344 E5.0501
G1 X106.983 Y117.484 E5.1715
G1 X107.153 Y117.88 E5.1844
G1 X104.22 Y120.814 E5.3089
G1 X104.318 Y121.283 E5.3233
G1 X107.324 Y118.277 E5.4509
G1 X107.495 Y118.673 E5.4638
G1 X104.416 Y121.752 E5.5945
G1 X104.514 Y122.222 E5.6089
G1 X107.666 Y119.069 E5.7427
G1 X107.837 Y119.465 E5.7556
G1 X104.611 Y122.691 E5.8925
G1 X104.709 Y123.16 E5.9069
G1 X108.008 Y119.861 E6.0469
G1 X108.179 Y120.258 E6.0599
G1 X104.749 Y123.687 E6.2055
G1 X104.847 Y124.157 E6.2198
G1 X108.35 Y120.654 E6.3685
G1 X108.636 Y120.935 E6.3805
G1 X104.945 Y124.626 E6.5372
G1 X105.042 Y125.096 E6.5516
G1 X108.953 Y121.185 E6.7175
G1 X109.27 Y121.435 E6.7297
G1 X105.14 Y125.565 E6.9049
G1 X105.238 Y126.034 E6.9193
G1 X109.587 Y121.685 E7.1039
G1 X109.904 Y121.935 E7.116
G1 X105.336 Y126.504 E7.3099
G1 X105.433 Y126.973 E7.3243
G1 X116.881 Y115.526 E7.8101
G1 X116.732 Y116.242 E7.8321
G1 X105.531 Y127.443 E8.3074
G1 X105.629 Y127.912 E8.3218
G1 X116.582 Y116.958 E8.7867
G1 X116.433 Y117.674 E8.8087
G1 X105.727 Y128.381 E9.2631
G1 X105.824 Y128.851 E9.2774
G1 X116.284 Y118.391 E9.7214
G1 X116.135 Y119.107 E9.7433
G1 X105.922 Y129.32 E10.1768
G1 X106.02 Y129.789 E10.1912
G1 X115.986 Y119.823 E10.6141
G1 X115.837 Y120.539 E10.6361
G1 X106.117 Y130.259 E11.0486
G1 X106.233 Y130.71 E11.0626
G1 X115.688 Y121.256 E11.4638
G1 X115.539 Y121.972 E11.4858
G1 X106.354 Y131.156 E11.8756
G1 X106.475 Y131.602 E11.8895
G1 X115.39 Y122.688 E12.2678
G1 X115.328 Y123.317 E12.2867
G1 X106.596 Y132.048 E12.6573
G1 X106.718 Y132.494 E12.6712
G1 X115.179 Y124.033 E13.0303
G1 X115.03 Y124.749 E13.0522
G1 X106.839 Y132.94 E13.3999
G1 X106.96 Y133.386 E13.4137
G1 X114.881 Y125.465 E13.7499
G1 X114.732 Y126.181 E13.7718
G1 X107.081 Y133.832 E14.0965
G1 X107.202 Y134.278 E14.1104
G1 X114.583 Y126.898 E14.4236
G1 X114.433 Y127.614 E14.4456
G1 X107.323 Y134.724 E14.7473
G1 X107.445 Y135.17 E14.7612
G1 X114.284 Y128.33 E15.0515
G1 X114.135 Y129.046 E15.0734
G1 X107.566 Y135.616 E15.3522
G1 X107.687 Y136.062 E15.3661
G1 X113.986 Y129.763 E15.6334
G1 X113.828 Y130.488 E15.6557
G1 X107.808 Y136.508 E15.9112
G1 X107.929 Y136.954 E15.9251
G1 X113.616 Y131.267 E16.1664
G1 X113.405 Y132.045 E16.1906
G1 X108.05 Y137.4 E16.4179
G1 X108.217 Y137.8 E16.4309
G1 X113.193 Y132.824 E16.6421
G1 X112.981 Y133.603 E16.6663
G1 X108.388 Y138.196 E16.8612
G1 X108.559 Y138.592 E16.8742
G1 X112.77 Y134.382 E17.0529
G1 X112.558 Y135.16 E17.0771
G1 X108.73 Y138.989 E17.2395
G1 X108.901 Y139.385 E17.2525
G1 X112.346 Y135.939 E17.3987
G1 X112.135 Y136.718 E17.4229
G1 X109.072 Y139.781 E17.5529
G1 X109.243 Y140.177 E17.5659
G1 X111.906 Y137.514 E17.6789
G1 X111.476 Y138.511 E17.7115
G1 X109.439 Y140.548 E17.798
G1 X109.756 Y140.798 E17.8101
G1 X111.046 Y139.508 E17.8649
G1 X110.615 Y140.506 E17.8975
G1 E13.8975 F2400
G92 E0
; Repositioning with retraction
G1 X112.003 Y119.837 F4800
G1 E4 F2400
G92 E0
; InfillOverhang
G1 X117.03 Y114.81 E0.2134 F1200
G1 X117.173 Y114.1 E0.2351
G1 X112.433 Y118.839 E0.4362
G1 X112.863 Y117.842 E0.4688
G1 X117.296 Y113.409 E0.657
G1 X117.42 Y112.718 E0.678
G1 X113.293 Y116.845 E0.8532
G1 X113.724 Y115.847 E0.8858
G1 X117.543 Y112.028 E1.0479
G1 X117.667 Y111.337 E1.0689
G1 X114.05 Y114.954 E1.2224
G1 X114.262 Y114.175 E1.2467
G1 X117.79 Y110.646 E1.3964
G1 X117.914 Y109.956 E1.4175
G1 X114.473 Y113.396 E1.5635
G1 X114.685 Y112.617 E1.5877
G1 X118.038 Y109.265 E1.73
G1 X118.161 Y108.574 E1.751
G1 X114.897 Y111.839 E1.8896
G1 X115.108 Y111.06 E1.9138
G1 X118.285 Y107.884 E2.0486
G1 X118.408 Y107.193 E2.0697
G1 X115.32 Y110.281 E2.2007
G1 X115.532 Y109.502 E2.2249
G1 X118.532 Y106.502 E2.3523
G1 X118.655 Y105.812 E2.3733
G1 X115.743 Y108.724 E2.4969
G1 X115.955 Y107.945 E2.5211
G1 X118.779 Y105.121 E2.641
G92 E0
; Repositioning
G1 X118.454 Y105.158 F4800
G1 X118.444 Y104.865
G1 X119.378 Y103.955
; InfillOverhang
G1 X116.166 Y107.166 E0.1363 F1200
G1 X116.378 Y106.387 E0.1605
G1 X120.448 Y102.317 E0.3333
G1 X120.944 Y101.255 E0.3684
G1 X116.59 Y105.609 E0.5532
G1 X116.801 Y104.83 E0.5774
G1 X121.284 Y100.347 E0.7677
G1 X121.492 Y99.573 E0.7918
G1 X119.001 Y102.063 E0.8975
G1 X119.591 Y100.906 E0.9364
G1 X121.699 Y98.798 E1.0259
G1 X121.76 Y98.17 E1.0448
G1 X120.146 Y99.784 E1.1134
G1 X120.255 Y99.108 E1.1339
G1 X121.814 Y97.548 E1.2001
G1 X121.869 Y96.927 E1.2188
G1 X120.362 Y98.434 E1.2828
G1 X120.468 Y97.76 E1.3033
G1 X121.86 Y96.369 E1.3623
G1 X121.814 Y95.847 E1.378
G1 X120.573 Y97.089 E1.4307
G1 X120.602 Y96.493 E1.4486
G1 X121.768 Y95.326 E1.4981
G1 X121.723 Y94.804 E1.5138
G1 X120.524 Y96.003 E1.5647
G1 X120.448 Y95.512 E1.5796
G1 X121.627 Y94.333 E1.6297
G1 X121.507 Y93.886 E1.6436
G1 X120.371 Y95.022 E1.6918
G1 X120.293 Y94.533 E1.7067
G1 X121.387 Y93.439 E1.7531
G1 X121.267 Y92.991 E1.767
G1 X120.214 Y94.045 E1.8118
G1 X120.136 Y93.556 E1.8266
G1 X121.135 Y92.556 E1.869
G1 X120.955 Y92.17 E1.8818
G1 X119.949 Y93.175 E1.9245
G1 X119.758 Y92.8 E1.9372
G1 X120.775 Y91.783 E1.9803
G1 X120.594 Y91.396 E1.9931
G1 X119.566 Y92.424 E2.0368
G1 X119.375 Y92.048 E2.0494
G1 X120.414 Y91.009 E2.0935
G1 X120.215 Y90.641 E2.1061
G1 X119.183 Y91.673 E2.1499
G1 X118.992 Y91.297 E2.1625
G1 X119.982 Y90.307 E2.2045
G1 X119.748 Y89.974 E2.2167
G1 X118.8 Y90.921 E2.257
G1 X118.637 Y90.518 E2.27
G1 X119.515 Y89.64 E2.3073
G1 X119.281 Y89.307 E2.3195
G1 X118.358 Y90.23 E2.3587
G1 X118.074 Y89.946 E2.3707
G1 X119.035 Y88.986 E2.4115
G1 X118.751 Y88.702 E2.4235
G1 X117.791 Y89.663 E2.4643
G1 X117.507 Y89.379 E2.4763
G1 X118.468 Y88.419 E2.5171
G1 X118.184 Y88.135 E2.5291
G1 X117.223 Y89.096 E2.5699
G1 X116.94 Y88.812 E2.5819
G1 X117.9 Y87.852 E2.6227
G1 X117.612 Y87.573 E2.6347
G1 X116.656 Y88.529 E2.6753
G1 X116.373 Y88.245 E2.6873
G1 X117.279 Y87.339 E2.7258
G1 X116.945 Y87.105 E2.738
G1 X116.054 Y87.997 E2.7759
G1 X115.678 Y87.806 E2.7885
G1 X116.612 Y86.872 E2.8281
G1 X116.278 Y86.638 E2.8404
G1 X115.302 Y87.614 E2.8818
G1 X115.241 Y87.108 E2.8971
G1 X116.052 Y86.297 E2.9315
G1 Y85.73 E2.9485
G1 X115.241 Y86.541 E2.9829
G1 Y85.974 E3
G1 X116.052 Y85.163 E3.0344
G1 Y84.596 E3.0514
G1 X115.241 Y85.407 E3.0858
G1 Y84.84 E3.1028
G1 X116.052 Y84.029 E3.1373
G1 Y83.461 E3.1543
G1 X115.241 Y84.273 E3.1887
G1 Y83.705 E3.2057
G1 X116.052 Y82.894 E3.2402
G1 Y82.327 E3.2572
G1 X115.241 Y83.138 E3.2916
G1 Y82.571 E3.3086
G1 X116.052 Y81.76 E3.343
G1 Y81.193 E3.3601
G1 X115.241 Y82.004 E3.3945
G1 Y81.437 E3.4115
G1 X116.019 Y80.659 E3.4445
G1 X115.241 Y80.87 E3.4687
G1 E-0.5313 F2400
G92 E0
; Repositioning with retraction
G1 X103.948 Y85.925 F4800
G1 E4 F2400
G92 E0
; InfillOverhang
G1 X104.759 Y85.114 E0.0344 F1200
G1 Y84.547 E0.0514
G1 X103.948 Y85.358 E0.0859
G1 Y84.791 E0.1029
G1 X104.759 Y83.98 E0.1373
G1 Y83.413 E0.1543
G1 X103.948 Y84.224 E0.1887
G1 Y83.657 E0.2057
G1 X104.759 Y82.846 E0.2402
G1 Y82.279 E0.2572
G1 X103.948 Y83.09 E0.2916
G1 Y82.523 E0.3086
G1 X104.759 Y81.712 E0.343
G1 Y81.144 E0.3601
G1 X103.948 Y81.955 E0.3945
G1 Y81.388 E0.4115
G1 X104.759 Y80.577 E0.4459
G1 Y80.01 E0.4629
G1 X103.948 Y80.821 E0.4974
G1 Y80.254 E0.5144
G1 X104.759 Y79.443 E0.5488
G1 Y78.876 E0.5658
G1 X103.948 Y79.687 E0.6002
G1 Y79.12 E0.6173
G1 X104.759 Y78.309 E0.6517
G1 Y77.742 E0.6687
G1 X103.948 Y78.553 E0.7031
G1 Y77.986 E0.7201
G1 X104.759 Y77.175 E0.7545
G1 Y76.608 E0.7716
G1 X103.948 Y77.419 E0.806
G1 Y76.851 E0.823
G1 X104.759 Y76.04 E0.8574
G1 Y75.473 E0.8744
G1 X103.948 Y76.284 E0.9089
G1 Y75.717 E0.9259
G1 X104.759 Y74.906 E0.9603
G1 Y74.339 E0.9773
G1 X103.948 Y75.15 E1.0117
G1 Y74.583 E1.0288
G1 X104.759 Y73.772 E1.0632
G1 Y73.205 E1.0802
G1 X103.948 Y74.016 E1.1146
G1 Y73.449 E1.1316
G1 X104.759 Y72.638 E1.1661
G1 Y72.071 E1.1831
G1 X103.948 Y72.882 E1.2175
G1 Y72.315 E1.2345
G1 X104.759 Y71.504 E1.2689
G1 Y70.936 E1.2859
G1 X103.948 Y71.747 E1.3204
G1 Y71.18 E1.3374
G1 X104.759 Y70.369 E1.3718
G1 Y69.802 E1.3888
G1 X103.948 Y70.613 E1.4232
G1 Y70.046 E1.4403
G1 X104.759 Y69.235 E1.4747
G1 Y68.668 E1.4917
G1 X103.948 Y69.479 E1.5261
G1 Y68.912 E1.5431
G1 X104.759 Y68.101 E1.5776
G1 Y67.534 E1.5946
G1 X103.948 Y68.345 E1.629
G1 Y67.778 E1.646
G1 X104.759 Y66.967 E1.6804
G1 Y66.399 E1.6975
G1 X103.948 Y67.211 E1.7319
G1 Y66.643 E1.7489
G1 X104.759 Y65.832 E1.7833
G1 Y65.265 E1.8003
G1 X103.948 Y66.076 E1.8348
G1 Y65.509 E1.8518
G1 X104.759 Y64.698 E1.8862
G1 Y64.131 E1.9032
G1 X103.948 Y64.942 E1.9376
G1 Y64.375 E1.9547
G1 X104.759 Y63.564 E1.9891
G1 Y62.997 E2.0061
G1 X103.948 Y63.808 E2.0405
G1 Y63.241 E2.0575
G1 X104.759 Y62.43 E2.092
G1 Y61.863 E2.109
G1 X103.948 Y62.674 E2.1434
G1 Y62.106 E2.1604
G1 X104.759 Y61.295 E2.1948
G1 Y60.728 E2.2118
G1 X103.948 Y61.539 E2.2463
G1 Y60.972 E2.2633
G1 X104.759 Y60.161 E2.2977
G1 Y59.594 E2.3147
G1 X103.948 Y60.405 E2.3491
G1 Y59.838 E2.3662
G1 X104.759 Y59.027 E2.4006
G1 Y58.46 E2.4176
G1 X103.948 Y59.271 E2.452
G1 Y58.704 E2.469
G1 X104.759 Y57.893 E2.5035
G1 Y57.326 E2.5205
G1 X103.948 Y58.137 E2.5549
G1 Y57.57 E2.5719
G1 X104.759 Y56.759 E2.6063
G1 Y56.191 E2.6234
G1 X103.948 Y57.002 E2.6578
G1 Y56.435 E2.6748
G1 X104.759 Y55.624 E2.7092
G1 Y55.057 E2.7262
G1 X103.948 Y55.868 E2.7607
G1 Y55.301 E2.7777
G1 X104.759 Y54.49 E2.8121
G1 Y53.923 E2.8291
G1 X103.948 Y54.734 E2.8635
G1 Y54.167 E2.8806
G1 X104.759 Y53.356 E2.915
G1 Y52.789 E2.932
G1 X103.948 Y53.6 E2.9664
G1 Y53.033 E2.9834
G1 X104.759 Y52.222 E3.0179
G1 Y51.654 E3.0349
G1 X103.948 Y52.466 E3.0693
G1 Y51.898 E3.0863
G1 X104.526 Y51.32 E3.1109
G1 X103.953 Y51.326 E3.1281
G1 E-0.8719 F2400
G92 E0
; Repositioning with retraction
G1 X115.337 Y51.416 F4800
G1 E4 F2400
G92 E0
; Infill
G1 X115.947 Y51.41 E0.0195 F2400
G1 X115.331 Y52.025 E0.0473
G1 Y52.629 E0.0666
G1 X115.962 Y51.998 E0.0951
G1 Y52.602 E0.1144
G1 X115.331 Y53.233 E0.1429
G1 Y53.837 E0.1622
G1 X115.962 Y53.206 E0.1908
G1 Y53.81 E0.2101
G1 X115.331 Y54.441 E0.2386
G1 Y55.045 E0.2579
G1 X115.962 Y54.414 E0.2864
G1 Y55.018 E0.3057
G1 X115.331 Y55.649 E0.3342
G1 Y56.253 E0.3535
G1 X115.962 Y55.622 E0.382
G1 Y56.226 E0.4013
G1 X115.331 Y56.857 E0.4299
G1 Y57.461 E0.4492
G1 X115.962 Y56.83 E0.4777
G1 Y57.434 E0.497
G1 X115.386 Y58.01 E0.523
G1 X115.962 Y58.037 E0.5415
G92 E0
; Repositioning
G1 X115.191 Y52.966 F4800
; Infill
G1 X113.635 Y51.41 E0.0659 F2400
G1 X112.639 E0.0957
G1 X104.809 Y59.24 E0.4272
G92 E0
; Repositioning
G1 X111.396 Y60.484 F4800
; Infill
G1 X104.809 Y53.897 E0.2788 F2400
G1 Y53.583 E0.2882
G1 X106.982 Y51.41 E0.3802
G1 X107.979 E0.4101
G1 X114.705 Y58.136 E0.6948
G1 X115.191 Y58.046 E0.7096
G1 Y54.514 E0.8153
G1 X104.809 Y64.897 E1.2549
G1 Y59.554 E1.4148
G1 X110.701 Y65.446 E1.6643
G1 X110.608 Y64.755 E1.6852
G1 X104.809 Y70.554 E1.9306
G1 Y65.211 E2.0906
G1 X111.361 Y71.763 E2.368
G1 X111.42 Y71.628 E2.3724
G1 X112.535 Y70.326 E2.4237
G1 X113.976 Y69.471 E2.4738
G1 X114.361 Y69.4 E2.4856
G1 X113.976 Y69.329 E2.4973
G1 X112.542 Y68.477 E2.5472
G1 X104.809 Y76.211 E2.8746
G1 Y70.868 E3.0345
G1 X110.727 Y76.786 E3.2851
G1 X110.717 Y76.763 E3.2858
G1 X110.621 Y76.055 E3.3072
G1 X104.809 Y81.868 E3.5533
G1 Y76.524 E3.7132
G1 X115.191 Y86.907 E4.1528
G1 Y82.799 E4.2757
G1 X111.74 Y86.25 E4.4219
G1 X110 Y85.974 E4.4746
G1 X108.793 Y86.166 E4.5112
G1 X104.809 Y82.181 E4.6798
G1 Y87.457 E4.8378
G1 X104.945 Y87.388 E4.8424
G1 X112.613 Y79.72 E5.167
G1 X113.976 Y80.529 E5.2144
G1 X114.582 Y80.64 E5.2329
G1 X115.191 Y81.25 E5.2587
G1 E1.2587
G92 E0
; Repositioning with retraction
G1 X103.037 Y88.699 F4800
G1 X100.891 Y90.711
G1 X99.604 Y93.131
G1 X98.997 Y96.7
G1 X99.604 Y100.269
G1 X100.891 Y102.689
G1 X103.04 Y104.703
G1 X103.849 Y105.454
G1 E4 F2400
G92 E0
    ; Infill
; Preset : Recommended
; Path width : 0.4
; Path height : 0.2
G1 X103.849 Y105.454 F2400
G1 X103.512 Y105.791 E0.0143
G1 X104.721 Y110.24 E0.1522
G1 X107.873 Y107.088 E0.2857
G1 X110 Y107.424 E0.3501
G1 X112.66 Y107.004 E0.4308
G1 X115.411 Y109.754 E0.5472
G1 X116.62 Y105.306 E0.6852
G1 X116.497 Y105.183 E0.6904
G1 X116.304 Y105.376 E0.6986
G1 X114.136 Y106.482 E0.7714
G1 X105.929 Y114.688 E1.1188
G1 X104.772 Y110.429 E1.2509
G1 X112.621 Y118.278 E1.5832
G1 X113.903 Y115.306 E1.6801
G1 X114.202 Y114.202 E1.7143
G1 X106.941 Y106.941 E2.0217
G92 E0
; Repositioning
G1 X102.711 Y113.698 F4800
; InfillOverhang
G1 X102.806 Y114.187 E0.0154 F1200
G1 X102.906 Y114.67 E0.0306
G1 X103.006 Y115.153 E0.0459
G1 X103.107 Y115.636 E0.0611
G1 X103.207 Y116.119 E0.0763
G1 X103.308 Y116.602 E0.0916
G1 X103.409 Y117.085 E0.1068
G1 X103.509 Y117.568 E0.122
G1 X103.61 Y118.051 E0.1373
G1 X103.71 Y118.534 E0.1525
G1 X103.811 Y119.017 E0.1677
G1 X103.911 Y119.5 E0.183
G1 X104.012 Y119.983 E0.1982
G1 X104.112 Y120.466 E0.2134
G1 X104.213 Y120.949 E0.2287
G1 X104.314 Y121.432 E0.2439
G1 X104.424 Y121.905 E0.2589
G1 X104.537 Y122.376 E0.2738
G1 X104.649 Y122.847 E0.2888
G1 X104.821 Y123.259 E0.3026
G92 E0
; Repositioning
G1 X111.837 Y120.094 F4800
; Infill
G1 X109.991 Y121.94 E0.0782 F2400
G1 X110 Y121.947 E0.0785
G1 X110.354 Y121.668 E0.092
G1 X107.694 Y119.008 E0.2046
G1 X107.565 Y118.709 E0.2143
G1 X114.998 Y111.277 E0.529
G92 E0
; Repositioning
G1 X117.24 Y113.949 F4800
; InfillOverhang
G1 X117.096 Y114.663 E0.022 F1200
G1 X116.946 Y115.384 E0.0442
G1 X116.796 Y116.105 E0.0665
G1 X116.646 Y116.825 E0.0887
G1 X116.496 Y117.546 E0.111
G1 X116.346 Y118.267 E0.1332
G1 X116.196 Y118.988 E0.1554
G1 X116.045 Y119.709 E0.1777
G1 X115.895 Y120.429 E0.1999
G1 X115.745 Y121.15 E0.2221
G1 X115.578 Y121.888 E0.245
G1 X115.397 Y122.64 E0.2683
G1 X115.315 Y123.293 E0.2882
G1 E-3.7118 F2400
G92 E0
  ; New Layer
; layer 6, Z = 1.439
; layer time : 00:01:28
; Repositioning
G0 Z1.439 F1000.02
; Repositioning with retraction
G1 X119.685 Y99.903 F4800
G1 X120.204 Y96.7
G1 X119.685 Y93.497
G1 X118.32 Y90.843
G1 X116.159 Y88.716
G1 X113.427 Y87.421
G1 X110.4 Y86.879
G1 X103.601 Y85.754
G1 E4 F2400
G92 E0
; Contour
G1 X101.846 Y86.983 E0.0641 F1200
G1 X100.283 Y88.546 E0.1303
G1 X99.014 Y90.358 E0.1965
G1 X98.08 Y92.361 E0.2627
G1 X97.507 Y94.497 E0.3289
G1 X97.314 Y96.7 E0.3951
G1 X97.507 Y98.903 E0.4613
G1 X98.08 Y101.039 E0.5275
G1 X99.014 Y103.042 E0.5936
G1 X100.283 Y104.854 E0.6598
G1 X100.52 Y105.091 E0.6699
G1 X104.458 Y127.107 E1.3394
G1 X107.03 Y139.462 E1.7171
G1 X108.504 Y144.887 E1.8854
G1 X109.521 Y147.245 E1.9623
G1 X110 Y147.623 E1.9805
G1 X110.479 Y147.245 E1.9988
G1 X111.496 Y144.887 E2.0757
G1 X112.97 Y139.464 E2.2439
G1 X115.542 Y127.107 E2.6217
G1 X119.48 Y105.091 E3.2912
G1 X119.717 Y104.854 E3.3012
G1 X120.986 Y103.042 E3.3674
G1 X121.92 Y101.039 E3.4336
G1 X122.493 Y98.903 E3.4998
G1 X122.686 Y96.7 E3.566
G1 X122.493 Y94.497 E3.6322
G1 X121.92 Y92.361 E3.6984
G1 X120.986 Y90.358 E3.7646
G1 X119.717 Y88.546 E3.8308
G1 X118.154 Y86.983 E3.8969
G1 X116.399 Y85.754 E3.9611
G1 Y80.335 E4.1233
G1 X115.6 Y80.482 E4.1476
G1 X114.097 Y80.206 E4.1933
G1 X112.757 Y79.41 E4.24
G1 X111.711 Y78.189 E4.2881
G1 X111.047 Y76.67 E4.3377
G1 X110.822 Y75 E4.3882
G1 X111.047 Y73.33 E4.4386
G1 X111.711 Y71.811 E4.4882
G1 X112.757 Y70.59 E4.5364
G1 X114.097 Y69.795 E4.583
G1 X115.6 Y69.516 E4.6288
G1 X116.399 Y69.664 E4.6531
G1 Y69.135 E4.6689
G1 X115.6 Y69.282 E4.6933
G1 X114.097 Y69.006 E4.739
G1 X112.757 Y68.21 E4.7856
G1 X111.711 Y66.989 E4.8338
G1 X111.047 Y65.47 E4.8834
G1 X110.822 Y63.8 E4.9338
G1 X111.047 Y62.13 E4.9843
G1 X111.711 Y60.611 E5.0339
G1 X112.757 Y59.39 E5.082
G1 X114.097 Y58.595 E5.1287
G1 X115.6 Y58.316 E5.1744
G1 X116.399 Y58.464 E5.1987
G1 Y51.07 E5.4201
G1 X103.601 E5.8032
G1 Y85.754 E6.8414
G92 E0
; Repositioning
G1 X103.231 Y85.561 F4800
; Contour
G1 X101.607 Y86.698 E0.0593 F1200
G1 X99.998 Y88.307 E0.1274
G1 X98.692 Y90.172 E0.1956
G1 X97.731 Y92.234 E0.2637
G1 X97.142 Y94.432 E0.3318
G1 X96.943 Y96.7 E0.4
G1 X97.142 Y98.968 E0.4681
G1 X97.731 Y101.166 E0.5362
G1 X98.692 Y103.228 E0.6043
G1 X99.998 Y105.093 E0.6725
G1 X100.177 Y105.271 E0.68
G1 X104.094 Y127.177 E1.3462
G1 X106.67 Y139.548 E1.7244
G1 X108.154 Y145.009 E1.8938
G1 X109.219 Y147.478 E1.9743
G1 X110 Y148.094 E2.0041
G1 X110.781 Y147.478 E2.0339
G1 X111.846 Y145.009 E2.1143
G1 X113.33 Y139.55 E2.2837
G1 X115.906 Y127.177 E2.662
G1 X119.823 Y105.271 E3.3282
G1 X120.002 Y105.093 E3.3357
G1 X121.308 Y103.228 E3.4038
G1 X122.269 Y101.166 E3.472
G1 X122.858 Y98.968 E3.5401
G1 X123.057 Y96.7 E3.6082
